!!!!SEGMENT: pl-sa--165-a-iv-15--002_staromiejski-j--vesperae-de-sanctis-ex-c-dixit-dominus.krn
!!!cenid: 17xx:349
!!!COM: Staromiejski, J.
!!!COM-rismid: pe41024944
!!!CDT: <1737->1737
!!!CNT:
!!!OPR: Vesperae de Sanctis ex C
!!!OTL: Dixit Dominus
!!!OMV: 002
!!!PDT:
!!!AGN: Sacred; Vespers
!!!SMS-siglum: PL-SA
!!!SMS-shelfmark: 165/A IV 15
!!!SMS-shelfwork: 001-002 M
!!!SMS-variant: Violino 1mo: PL-SA 165/A IV 15:53; Violino 2do: PL-SA 165/A IV 15:61
!!!SMS-altvar: Violino 1mo.: PL-SA 165/A IV 15:27; Violino Secundo: PL-SA 165/A IV 15:35
!!!NIFC-rismid: 1001077264
!!!URL-scan: http://bc.bdsandomierz.pl/dlibra/publication/1551/edition/1519/content
!!!ONB-nifc: UWAGA: części Vesperae: Domine, Dixit Dominus, Confitebor, Beatus vir, Laudate, Laudate Dominum, Magnificat
!!!key:
**kern	**fba	**kern	**kern	**kern	**text	**kern	**text	**kern	**text	**kern	**text	**kern	**kern
*part11	*	*part9	*part7	*part6	*part6	*part5	*part5	*part4	*part4	*part3	*part3	*part2	*part1
*	*	*group3	*group3	*group2	*	*group2	*	*group2	*	*group2	*	*group1	*group1
*staff11	*	*staff9	*staff7	*staff6	*staff6	*staff5	*staff5	*staff4	*staff4	*staff3	*staff3	*staff2	*staff1
*Iorgan	*	*Ivioln	*Ivioln	*Iempty	*	*Itenor	*	*Ialto	*	*Ivox	*	*Iempty	*Iempty
*I"Organo	*	*I"Violino 2do.	*I"Violino 1mo.	*I"Baſso.	*	*I"Tenore	*	*I"Alto	*	*I"Canto	*	*I"Clarino Secundo	*I"Clarino.. Imo
*I'org	*	*I'vl 2	*I'vl 1	*I'B	*	*I'T	*	*I'A	*	*I'S	*	*I'clno 2	*I'clno 1
*clefF4	*	*clefG2	*clefG2	*clefF4	*	*clefC4	*	*clefC3	*	*clefC1	*	*clefG2	*clefG2
*	*	*ITrd1c2	*ITrd1c2	*	*	*	*	*	*	*	*	*	*
*k[]	*	*k[]	*k[]	*k[]	*	*k[]	*	*k[]	*	*k[]	*	*k[]	*k[]
*C:	*	*C:	*C:	*C:	*	*C:	*	*C:	*	*C:	*	*C:	*C:
*M2/4	*	*M2/4	*M2/4	*M2/4	*	*M2/4	*	*M2/4	*	*M2/4	*	*M2/4	*M2/4
=1	=1	=1	=1	=1	=1	=1	=1	=1	=1	=1	=1	=1	=1
!LO:TX:a:t=And.	!	!LO:TX:a:t=Andante	!	!	!	!	!	!	!	!LO:TX:a:t=All	!	!	!
!LO:TX:b:t=Dixit	!	!LO:TX:a:t=D	!LO:TX:b:t=Dixit	!	!	!	!	!	!	!	!	!LO:TX:a:t=D	!LO:TX:a:t=D
!	!	!LO:TX:a:t=P:problem=krzyżyki wymiennie, albo f#, cc#, ff# albo cc#, ff#, zawsze jeden nad drugim	!LO:TX:a:t=P:problem=krzyżyki w pierwszym takcieff#, ee#, w pozostałych - poprawne	!	!	!	!	!	!	!	!	!	!
!LO:TX:a:t=P:problem=wszystkie caudy z prawej strony	!	!LO:TX:a:t=P:problem=wszystkie caudy z prawej strony	!LO:TX:a:t=P:problem=wszystkie caudy z prawej strony	!LO:TX:a:t=P:problem=wszystkie caudy z prawej strony	!	!LO:TX:a:t=P:problem=wszystkie caudy z prawej strony	!	!LO:TX:a:t=P:problem=wszystkie caudy z prawej strony	!	!LO:TX:a:t=P:problem=wszystkie caudy z prawej strony	!	!LO:TX:a:t=P:problem=wszystkie caudy z prawej strony	!LO:TX:a:t=P:problem=wszystkie caudy z prawej strony
!	!	!LO:TX:a:t=P:problem=głos zapisany w transpozycji	!LO:TX:a:t=P:problem=głos zapisany w transpozycji	!	!	!	!	!	!	!	!	!	!
!	!	!	!	!LO:N:vis=00	!	!LO:N:vis=00	!	!LO:N:vis=00	!	!LO:N:vis=00	!	!LO:N:vis=00	!LO:N:vis=00
8C/L	.	16g/LL	16g/LL	0r	.	0r	.	0r	.	0r	.	0r	0r
.	.	16e/J	16e/J	.	.	.	.	.	.	.	.	.	.
8C/	.	8c/J	8c/J	.	.	.	.	.	.	.	.	.	.
8C/	.	8c/L	8c/L	.	.	.	.	.	.	.	.	.	.
8C/J	.	8c/J	8c/J	.	.	.	.	.	.	.	.	.	.
=2	=2	=2	=2	=2	=2	=2	=2	=2	=2	=2	=2	=2	=2
8C/L	.	16g/LL	16g/LL	.	.	.	.	.	.	.	.	.	.
.	.	16e/J	16e/J	.	.	.	.	.	.	.	.	.	.
8C/	.	8c/J	8c/J	.	.	.	.	.	.	.	.	.	.
8C/	.	8c/L	8c/L	.	.	.	.	.	.	.	.	.	.
8C/J	.	8c/J	8c/J	.	.	.	.	.	.	.	.	.	.
=3	=3	=3	=3	=3	=3	=3	=3	=3	=3	=3	=3	=3	=3
8C/L	.	16e/LL	16g/LL	.	.	.	.	.	.	.	.	.	.
.	.	16c/	16e/J	.	.	.	.	.	.	.	.	.	.
8C/	.	16G/	8c/J	.	.	.	.	.	.	.	.	.	.
.	.	16c/JJ	.	.	.	.	.	.	.	.	.	.	.
8C/	6 4	8f/L	8a\L	.	.	.	.	.	.	.	.	.	.
8C/J	.	8f/J	8a\J	.	.	.	.	.	.	.	.	.	.
!LO:LB:g=original	!	!	!	!	!	!	!	!	!	!	!	!	!
=4	=4	=4	=4	=4	=4	=4	=4	=4	=4	=4	=4	=4	=4
8C/L	.	8e/L	8g/L	.	.	.	.	.	.	.	.	.	.
8C/J	5 3	8c/J	8c/J	.	.	.	.	.	.	.	.	.	.
4r	.	4r	4r	.	.	.	.	.	.	.	.	.	.
=5	=5	=5	=5	=5	=5	=5	=5	=5	=5	=5	=5	=5	=5
!LO:N:vis=0	!	!	!	!LO:N:vis=00	!	!LO:N:vis=00	!	!LO:N:vis=00	!	!LO:N:vis=00	!	!LO:N:vis=00	!LO:N:vis=00
1r	.	16ee\LL	16gg\LL	0r	.	0r	.	0r	.	0r	.	0r	0r
.	.	16cc\	16ee\J	.	.	.	.	.	.	.	.	.	.
.	.	16a\	8cc\J	.	.	.	.	.	.	.	.	.	.
.	.	16ee\JJ	.	.	.	.	.	.	.	.	.	.	.
.	.	8ff\L	8aa\L	.	.	.	.	.	.	.	.	.	.
.	.	8ff\J	8aa\J	.	.	.	.	.	.	.	.	.	.
=6	=6	=6	=6	=6	=6	=6	=6	=6	=6	=6	=6	=6	=6
.	.	8ee\L	8gg\L	.	.	.	.	.	.	.	.	.	.
.	.	8cc\J	8cc\J	.	.	.	.	.	.	.	.	.	.
.	.	4r	4r	.	.	.	.	.	.	.	.	.	.
=7	=7	=7	=7	=7	=7	=7	=7	=7	=7	=7	=7	=7	=7
8G\L	.	8b\L	16g\LL	.	.	.	.	.	.	.	.	.	.
.	.	.	16b\J	.	.	.	.	.	.	.	.	.	.
8G\	.	8b\	8dd\J	.	.	.	.	.	.	.	.	.	.
8G\	.	8b\	8g\L	.	.	.	.	.	.	.	.	.	.
8G\J	.	8b\J	8g\J	.	.	.	.	.	.	.	.	.	.
=8	=8	=8	=8	=8	=8	=8	=8	=8	=8	=8	=8	=8	=8
!	!	!LO:TX:a:t=P:problem=mixed beam	!	!	!	!	!	!	!	!	!	!	!
8G\L	.	8cc\L	16g\LL	.	.	.	.	.	.	.	.	.	.
.	.	.	16cc\J	.	.	.	.	.	.	.	.	.	.
8G\	6 4	8cc\	8ee\J	.	.	.	.	.	.	.	.	.	.
8G\	.	8e/	8g/L	.	.	.	.	.	.	.	.	.	.
8G\J	.	8e/J	8g/J	.	.	.	.	.	.	.	.	.	.
=9	=9	=9	=9	=9	=9	=9	=9	=9	=9	=9	=9	=9	=9
!	!	!	!	!LO:N:vis=0	!	!LO:N:vis=0	!	!LO:N:vis=0	!	!LO:N:vis=0	!	!LO:N:vis=0	!LO:N:vis=0
8G\L	.	8b\L	16g\LL	1r	.	1r	.	1r	.	1r	.	1r	1r
.	.	.	16b\	.	.	.	.	.	.	.	.	.	.
8G\	.	8b\	16dd\	.	.	.	.	.	.	.	.	.	.
.	.	.	16ff\JJ	.	.	.	.	.	.	.	.	.	.
8c\	.	8g\	8ee\L	.	.	.	.	.	.	.	.	.	.
8F\J	.	8b\J	8cc\J	.	.	.	.	.	.	.	.	.	.
=10	=10	=10	=10	=10	=10	=10	=10	=10	=10	=10	=10	=10	=10
!LO:TX:a:t=P:problem=mixed beam	!	!	!	!	!	!	!	!	!	!	!	!	!
8G\L	.	8g/L	8b\L	.	.	.	.	.	.	.	.	.	.
8F\	.	8a/	8cc\	.	.	.	.	.	.	.	.	.	.
8G\	.	8.g/	8a\	.	.	.	.	.	.	.	.	.	.
8GG/J	.	.	8b\J	.	.	.	.	.	.	.	.	.	.
.	.	16f/Jk	.	.	.	.	.	.	.	.	.	.	.
!	!	!LO:LB:g=original	!	!	!	!	!	!	!	!	!	!	!
=11	=11	=11	=11	=11	=11	=11	=11	=11	=11	=11	=11	=11	=11
4C/	.	4e/	4cc\	2r	.	2r	.	2r	.	2r	.	2r	2r
4r	.	4r	4r	.	.	.	.	.	.	.	.	.	.
!	!	!	!	!	!	!	!	!	!	!	!	!	!LO:LB:g=original
=12	=12	=12	=12	=12	=12	=12	=12	=12	=12	=12	=12	=12	=12
!	!	!	!	!LO:TX:b:t=P:problem="D" przed kluczem	!	!LO:TX:b:t=P:problem="D" przed kluczem	!	!LO:TX:b:t=P:problem="D" przed kluczem	!	!LO:TX:b:t=P:problem="D" przed kluczem	!	!	!
8C/L	.	16g/LL	16g/LL	4c\	[D]i-	4e\	[D]i-	4g\	[D]i-	4cc\	[D]i-	8c/L	8c/L
.	.	16e/J	16e/J	.	.	.	.	.	.	.	.	.	.
8C/	.	8c/J	8c/J	.	.	.	.	.	.	.	.	8c/	8c/
8C/	.	8c/L	8c/L	4c\	-xit	4e\	-xit	4g\	-xit	4cc\	-xit	8c/	8c/
8C/J	.	8c/J	8c/J	.	.	.	.	.	.	.	.	8c/J	8c/J
=13	=13	=13	=13	=13	=13	=13	=13	=13	=13	=13	=13	=13	=13
8C/L	.	16g/LL	16g/LL	4c\	Do-	4e\	Do-	4g\	Do-	4cc\	Do-	8c/L	8c/L
.	.	16e/J	16e/J	.	.	.	.	.	.	.	.	.	.
8C/	.	8c/J	8c/J	.	.	.	.	.	.	.	.	8c/	8c/
!	!	!	!LO:LB:g=original	!	!	!	!	!	!	!	!	!	!
8C/	.	8c/L	8c/L	8C/	-mi-	8e\	-mi-	8g\	-mi-	8cc\	-mi-	8c/	8c/
8C/J	.	8c/J	8c/J	8C/	-nus	8e\	-nus	8g\	-nus	8cc\	-nus	8c/J	8c/J
=14	=14	=14	=14	=14	=14	=14	=14	=14	=14	=14	=14	=14	=14
*	*	*	*	*	*ij	*	*	*	*ij	*	*	*	*
8C/L	.	16e/LL	16g/LL	8C/	Do-	8c\	Do-	8e\	Do-	8g\	Do-	8c/L	8c/L
.	.	16c/	16e/J	.	.	.	.	.	.	.	.	.	.
8C/	6 4	16G/	8c/J	16C/	-mi-	16c\	-mi-	16e\	-mi-	16g\	-mi-	8c/	8c/
.	.	16c/JJ	.	16C/	-nus	16c\	-no	16e\	-nus	16g\	-no	.	.
*	*	*	*	*	*Xij	*	*ij	*	*Xij	*	*ij	*	*
8C/	.	8f/L	8a\L	8F\	Do-	8c\	Do-	8f\	Do-	8a\	Do-	8c/	8c/
8C/J	.	8f/J	8a\J	16F\	-mi-	16c\	-mi-	16f\	-mi-	16a\	-mi-	8c/J	8c/J
.	.	.	.	16F\	-no	16c\	-no	16f\	-no	16a\	-no	.	.
*	*	*	*	*	*	*	*	*	*	*	*Xij	*	*
=15	=15	=15	=15	=15	=15	=15	=15	=15	=15	=15	=15	=15	=15
8C/L	.	8e/L	8g/L	8C/	me-	8c\	me-	8e\	me-	8g\	me-	4c/	4c/
8C/J	.	8c/J	8c/J	8C/	-o	8c\	-o	8e\	-o	8g\	-o	.	.
4r	.	4r	4r	4r	.	4r	.	4r	.	4r	.	4r	4r
=16	=16	=16	=16	=16	=16	=16	=16	=16	=16	=16	=16	=16	=16
!LO:N:vis=0	!	!	!	!LO:N:vis=0	!	!	!	!	!	!LO:TX:b:t=P:problem=oprócz znaku powtórzenia tekstu, dopisane mało widoczne słowa	!	!LO:N:vis=0	!LO:N:vis=0
*	*	*	*	*	*	*	*	*	*ij	*	*ij	*	*
1r	.	16ee\LL	16gg\LL	1r	.	8e\	Do-	8g\	Do-	8cc\	Do-	1r	1r
.	.	16cc\	16ee\J	.	.	.	.	.	.	.	.	.	.
.	.	16g\	8cc\J	.	.	16e\	-mi-	16g\	-mi-	16cc\	-mi-	.	.
.	.	16cc\JJ	.	.	.	16e\	-no	16g\	-nus	16cc\	-no	.	.
.	.	8ff\L	8aa\L	.	.	8f\	Do-	8a\	Do-	8cc\	Do-	.	.
.	.	8ff\J	8aa\J	.	.	16f\	-mi-	16a\	-mi-	16cc\	-mi-	.	.
.	.	.	.	.	.	16f\	-no	16a\	-no	16cc\	-no	.	.
=17	=17	=17	=17	=17	=17	=17	=17	=17	=17	=17	=17	=17	=17
.	.	8ee\L	8gg\L	.	.	8e\	me-	8g\	me-	8cc\	me-	.	.
.	.	8cc\J	8cc\J	.	.	8e\	-o	8g\	-o	8cc\	-o	.	.
*	*	*	*	*	*	*	*Xij	*	*Xij	*	*Xij	*	*
.	.	4r	4r	.	.	4r	.	4r	.	4r	.	.	.
=18	=18	=18	=18	=18	=18	=18	=18	=18	=18	=18	=18	=18	=18
8G\L	.	8b\L	16g\LL	4G\	se-	4B\	Se-	4g\	Se-	4dd\	se-	8g/L	8ddL 8b\
.	.	.	16b\J	.	.	.	.	.	.	.	.	.	.
8G\	.	8b\	8dd\J	.	.	.	.	.	.	.	.	8g/	8dd 8b\
8G\	.	8b\	8g/L	4G\	-de	4B\	-de	4g\	-de	4dd\	-de	8g/	8dd 8b\
8G\J	.	8b\J	8g/J	.	.	.	.	.	.	.	.	8g/J	8ddJ 8b\
!	!	!	!LO:LB:g=original	!	!	!	!	!LO:LB:g=original	!	!	!	!	!
=19	=19	=19	=19	=19	=19	=19	=19	=19	=19	=19	=19	=19	=19
!	!	!LO:TX:a:t=P:problem=mixed beam	!	!	!	!	!	!	!	!LO:TX:b:t=P:problem=oprócz znaku powtórzenia tekstu, dopisane mało widoczne słowa	!	!	!
*	*	*	*	*	*ij	*	*ij	*	*ij	*	*ij	*	*
8G\L	.	8cc\L	16g\LL	4G\	se-	4c\	Se-	4g\	Se-	4ee\	se-	8cc\L	8ee\L
.	.	.	16cc\J	.	.	.	.	.	.	.	.	.	.
8G\	.	8cc\	8ee\J	.	.	.	.	.	.	.	.	8cc\	8ee\
8G\	6 4	8e/	8g/L	8G\	-de	8c\	-de	8g\	-de	8ee\	-de	8cc\	8ee\
*	*	*	*	*	*Xij	*	*Xij	*	*Xij	*	*Xij	*	*
8G\J	.	8e/J	8g/J	8G\	a	8c\	a	8g\	a	8ee\	a	8cc\J	8ee\J
!	!	!	!	!	!	!LO:LB:g=original	!	!	!	!	!	!	!
=20	=20	=20	=20	=20	=20	=20	=20	=20	=20	=20	=20	=20	=20
!	!	!	!	!LO:SIC:s=4G:v	!	!	!	!	!	!	!	!	!
8G\L	.	16b\LL	16g\LL	8G\	dex-	4B\	dex-	4g\	dex-	4dd\	dex-	8g\L	8dd\L
.	.	16g\	16b\	.	.	.	.	.	.	.	.	.	.
!	!	!	!	!LO:SIC:s=8c:v	!	!	!	!	!	!	!	!	!
8G\	.	16b\	16dd\	4c\	-tris	.	.	.	.	.	.	8g\	8dd\
.	.	16dd\JJ	16ff\JJ	.	.	.	.	.	.	.	.	.	.
8c\	.	8g/L	8ee\L	.	.	8c\	-tris	8g\	-tris	8ee\	-tris	8cc\	8ee\
!LO:SIC:s=8F:v	!	!	!	!	!	!	!	!	!	!	!	!	!
*	*	*	*	*	*ij	*	*ij	*	*ij	*	*ij	*	*
8G\J	.	8a/J	8cc\J	8F\	a	8f\	a	8a\	a	8dd\	a	8dd\J	8ff\J
!LO:LB:g=original	!	!	!	!	!	!	!	!	!	!LO:LB:g=original	!	!	!
=21	=21	=21	=21	=21	=21	=21	=21	=21	=21	=21	=21	=21	=21
!LO:TX:a:t=P:problem=mixed beam	!	!	!	!	!	!	!	!	!	!LO:TX:b:t=P:problem=oprócz znaku powtórzenia tekstu, dopisane mało widoczne słowa	!	!	!
8G\L	.	8g/L	8b\L	8G\	dex-	8d\	dex-	8g\	dex-	8b\	dex-	4g/	4.dd\
8F\	.	8a/	8cc\	8F\	-tris	8d\	-tris	8a\	-tris	8cc\	-tris	.	.
*	*	*	*	*	*Xij	*	*Xij	*	*Xij	*	*Xij	*	*
!	!	!	!	!LO:TX:a:t=P:problem=mixed beam	!	!	!	!	!	!	!	!	!
8G\	.	8.g/	8a\	(>8G\L	me-	4d\	me-	4g\	me-	(8cc\L	me-	8g/L	.
8GG/J	.	.	8b\J	8GG/J)	.	.	.	.	.	8b\J)	.	8g/J	8dd\
.	.	16f/Jk	.	.	.	.	.	.	.	.	.	.	.
!	!	!LO:LB:g=original	!	!	!	!	!	!	!	!	!	!	!
=22	=22	=22	=22	=22	=22	=22	=22	=22	=22	=22	=22	=22	=22
!LO:TX:a:t=P:problem=mixed beam	!	!LO:TX:a:t=P:problem=mixed beam	!	!	!	!	!	!	!	!	!	!	!
8C/L	.	8e/L	16cc\LL	8C/	-is	8e\	-is	8g\	-is	8cc\	-is	8e/L	8cc\L
.	.	.	16gg\	.	.	.	.	.	.	.	.	.	.
16c\L	.	16ee\L	16gg\	16c\	Do-	16c\	Do-	16g\	do-	16ee\	do-	8g/	16ee\L
16B\JJ	.	16dd\JJ	16gg\JJ	16B\	-nec	16B\	-nec	16g\	-nec	16dd\	-nec	.	16dd\JJ
8c\L	.	8ee\L	16gg\LL	8c\	po-	8c\	po-	8g\	po-	8ee\	po-	8g/	8ee\L
.	.	.	16gg\	.	.	.	.	.	.	.	.	.	.
8G\J	.	8b\J	16gg\	8G\	-nam	8d\	-nam	8g\	-nam	8b\	-nam	8g/J	8dd\J
.	.	.	16gg\JJ	.	.	.	.	.	.	.	.	.	.
!	!	!	!	!	!	!	!	!	!	!	!	!LO:LB:g=original	!
=23	=23	=23	=23	=23	=23	=23	=23	=23	=23	=23	=23	=23	=23
8r	.	8r	16gg\LL	8r	.	8r	.	8r	.	8r	.	8r	8r
.	.	.	16gg\	.	.	.	.	.	.	.	.	.	.
*	*	*	*	*	*ij	*	*	*	*	*	*	*	*
16c\LL	.	16ee\LL	16gg\	16c\	Do-	16c\	I-	16g\	I-	16ee\	I-	8g/L	16ee\LL
!	!	!	!	!	!	!	!	!LO:SIC:s=16g:v	!	!	!	!	!
16B\JJ	.	16dd\JJ	16gg\JJ	16B\	-nec	16B\	-ni-	16f\	-ni-	16dd\	-ni-	.	16dd\JJ
8c\L	.	8ee\L	16gg\LL	8c\	po-	8c\	-mi-	8g\	-mi-	8ee\	-mi-	8g/	8ee\L
.	.	.	16gg\	.	.	.	.	.	.	.	.	.	.
8G\J	.	8b\J	16gg\	8G\	-nam	8d\	-cos	8g\	-cos	8b\	-cos	8b/J	8gg\J
*	*	*	*	*	*Xij	*	*	*	*	*	*	*	*
.	.	.	16gg\JJ	.	.	.	.	.	.	.	.	.	.
=24	=24	=24	=24	=24	=24	=24	=24	=24	=24	=24	=24	=24	=24
!	!	!	!	!	!	!LO:SIC:s=8e:v	!	!	!	!LO:TX:b:t=P:problem=oprócz znaku powtórzenia tekstu, dopisane mało widoczne słowa	!	!	!
*	*	*	*	*	*	*	*ij	*	*ij	*	*ij	*	*
8c\L	.	8ee\L	16gg\LL	8c\	I-	8d\	I-	8.g\	I-	8cc\	I-	8ee\L	8gg\L
.	.	.	16gg\	.	.	.	.	.	.	.	.	.	.
8B\	6	8dd\	16gg\	8B\	-ni-	8B\	-ni-	.	.	16ee\LL	-ni-	8dd\	8gg\
.	.	.	16gg\JJ	.	.	.	.	16g\	-ni-	16dd\JJ	.	.	.
8A\	6\	8cc\	16ff#X\LL	8A\	-mi-	8c\	-mi-	8f#X\	-mi-	8ee\	-mi-	8cc\	8ff#X\
.	.	.	16gg\	.	.	.	.	.	.	.	.	.	.
8G\J	.	8b\J	16gg\	8G\	-cos	8d\	-cos	8g\	-cos	8b\	-cos	8dd\J	8gg\J
*	*	*	*	*	*	*	*Xij	*	*Xij	*	*Xij	*	*
.	.	.	16gg\JJ	.	.	.	.	.	.	.	.	.	.
=25	=25	=25	=25	=25	=25	=25	=25	=25	=25	=25	=25	=25	=25
!LO:TX:a:t=P:problem=mixed beam	!	!	!	!	!	!	!	!	!	!	!	!	!
8d\L	.	8a\L	8ff#X\L	8d\	tu-	8d\	tu-	8f#X\	tu-	8a\	tu-	4dd\	4ff#X\
8D/J	.	8a\J	8ff#\J	8D\	-os	8d\	-os	8f#\	-os	8a\	-os	.	.
8r	.	8r	8r	8r	.	8r	.	8r	.	8r	.	4r	8r
8D\	.	8a\	8ff#\	8D\	sca-	8d\	sca-	8f#\	sca-	8a\	sca-	.	8dd\
!	!	!	!LO:LB:g=original	!	!	!	!	!	!	!	!	!	!
=26	=26	=26	=26	=26	=26	=26	=26	=26	=26	=26	=26	=26	=26
*2\right	*	*	*	*2\right	*	*2\right	*	*	*	*	*	*	*2\right
!	!	!	!	!	!	!	!	!LO:SIC:s=8f#:v	!	!	!	!LO:TX:a:t=2	!
2D\	.	8a\L	(8ff\L	2D\	-bel-	2d\	-bel-	(8f\L	-bel-	(8a\L	-bel-	1r	2dd\
.	.	8b\	8gg\	.	.	.	.	8g\J)	.	8b\	.	.	.
.	.	8b\	8gg\	.	.	.	.	(8g\L	-lum	8b\	.	.	.
.	.	8cc\J	8aa\J)	.	.	.	.	8a\J)	.	8cc\J)	.	.	.
!	!	!	!	!	!	!	!	!LO:LB:g=original	!	!	!	!	!
=27	=27	=27	=27	=27	=27	=27	=27	=27	=27	=27	=27	=27	=27
2D\	.	8cc\L	8aa\L	4.D\	-lum	4.d\	-lum	(8a\L	pe-	8cc\L	-lum	.	2dd\
.	.	8b\	8gg\	.	.	.	.	8g\J)	.	8b\J	.	.	.
.	.	8b\	8gg\	.	.	.	.	8g\	-dum	8b\	pe-	.	.
.	.	8a\J	8ff#X\J	8D\	pe-	8d\	pe-	8f#X\	tu-	8a\	.	.	.
!	!	!	!	!LO:LB:g=original	!	!	!	!	!	!	!	!	!
=28	=28	=28	=28	=28	=28	=28	=28	=28	=28	=28	=28	=28	=28
!LO:TX:a:t=P:problem=mixed beam	!	!	!	!	!	!	!	!	!	!	!	!LO:TX:a:t=P:problem=mixed beam	!
8G\L	.	8b\L	8gg\L	8G\	-dum	8d\	-dum	8g\	-o-	8b\	-dum	8g/L	8dd\
8C\	.	8ee\	8aa\	8C\	tu-	8e\	tu-	8g\	.	8a\	tu-	8ee\	4gg\
!	!	!	!	!LO:TX:a:t=P:problem=mixed beam	!	!	!	!	!	!	!	!	!
8D\	.	8a\	8dd\	8D\L	-o-	8.d\L	-o-	(8g\L	.	4a\	o-	8dd\	.
!	!	!	!	!	!	!	!	!LO:SIC:s=8f#:v	!	!	!	!	!
8DD/J	.	8dd\J	8ff#X\J	8DD/J	.	.	.	8f\J)	.	.	.	8dd\J	8ff#X\
.	.	.	.	.	.	16c\Jk	.	.	.	.	.	.	.
=29	=29	=29	=29	=29	=29	=29	=29	=29	=29	=29	=29	=29	=29
!	!	!	!LO:TX:a:t=P:problem=mixed beam	!	!	!	!	!	!	!	!	!	!
4GG/	.	8b\L	8gg\L	4GG/	-rum	4B\	-rum	4g\	-rum	4g\	-rum	4dd\	4gg\
.	.	8g\J	8g/J	.	.	.	.	.	.	.	.	.	.
8r	.	8r	8r	8r	.	8r	.	8r	.	8r	.	8r	8r
!	!	!	!	!	!	!LO:LB:g=original	!	!	!	!	!	!	!LO:TX:a:t=P:problem=bok kartki z ubytkiem, widać tylko część główki
8GG/	.	8dd\	8bb\	8G\	sca-	8B\	sca-	8g\	sca-	8dd\	sca-	8G/	8g/
!	!	!	!	!	!	!	!	!	!	!	!	!	!LO:LB:g=original
=30	=30	=30	=30	=30	=30	=30	=30	=30	=30	=30	=30	=30	=30
*	*	*	*	*	*	*	*	*2\right	*	*	*	*	*
2GG/	.	8dd\L	8bb\L	2G\	-bel-	8B\L	-bel-	2g\	-bel-	8dd\L	-bel-	2G/	2g/
.	.	8ee\	8ccc\	.	.	8c\J	.	.	.	8ee\	.	.	.
.	.	8ee\	8ccc\	.	.	8c\L	-lum	.	.	8ee\	-lum	.	.
.	.	8ff\J	8ddd\J	.	.	8d\J	.	.	.	8ff\J	.	.	.
!	!	!	!	!	!	!	!	!	!	!LO:LB:g=original	!	!	!
=31	=31	=31	=31	=31	=31	=31	=31	=31	=31	=31	=31	=31	=31
2GG/	.	8ff\L	(8ddd\L	4.G\	-lum	8d\L	pe-	4.g\	-lum	8ff\L	.	4G/	4g/
.	.	8ee\	8ccc\	.	.	8c\J	.	.	.	[8ee\	pe-	.	.
.	.	8ee\	8ccc\	.	.	8c\	-dum	.	.	8ee\]	.	8r	8r
*	*	*	*	*	*	*	*ij	*	*	*	*	*	*
.	.	8dd\J	8bb\J)	8G\	pe-	8B\	pe-	8g\	pe-	8dd\J	.	8G/	8dd\
=32	=32	=32	=32	=32	=32	=32	=32	=32	=32	=32	=32	=32	=32
!LO:TX:a:t=P:problem=mixed beam	!	!	!	!	!	!	!	!	!	!	!	!	!
8C\L	.	8ee\L	8ccc\L	8c\	-dum	8c\	-dum	8g\	-dum	8ee\	-dum	8c/L	8ee\L
*	*	*	*	*	*	*	*Xij	*	*	*	*	*	*
8F\	.	8ff\J	8ddd\	8F\	tu-	8c\	tu-	8a\	tu-	8dd\	tu-	8c/	16ff\L
.	.	.	.	.	.	.	.	.	.	.	.	.	16ee\JJ
!	!	!	!	!LO:TX:a:t=P:problem=mixed beam	!	!	!	!	!	!	!	!	!
8G\	.	8dd\L	8gg\	8G\L	-o-	8d\L	-o-	8.g\L	-o-	4dd\	-o-	8g/	8.dd\L
8GG/J	.	16gg\L	8bb\J	8GG/J	.	8B\J	.	.	.	.	.	8g/J	.
.	.	16ff\JJ	.	.	.	.	.	16f\Jk	.	.	.	.	16dd\Jk
!	!	!LO:LB:g=original	!	!	!	!	!	!	!	!	!	!	!
=33	=33	=33	=33	=33	=33	=33	=33	=33	=33	=33	=33	=33	=33
4C/	.	8ee\L	8ccc\L	4C/	-rum	4c\	-rum	4e\	-rum	4cc\	-rum	4e/	4cc\
.	.	8cc\J	8cc\J	.	.	.	.	.	.	.	.	.	.
4r	.	4r	4r	4r	.	4r	.	4r	.	4r	.	4r	4r
=34	=34	=34	=34	=34	=34	=34	=34	=34	=34	=34	=34	=34	=34
!LO:TX:a:t=Solo	!	!	!	!	!	!	!	!	!	!LO:TX:a:t=4	!	!LO:N:vis=00	!LO:N:vis=00
!	!	!	!	!LO:N:vis=00	!	!LO:N:vis=00	!	!LO:N:vis=00	!	!LO:N:vis=00	!	!	!
8C/L	.	8e/L	16g/LL	0r	.	0r	.	0r	.	0r	.	0r	0r
.	.	.	16e/J	.	.	.	.	.	.	.	.	.	.
8C/	.	8e/	8c/J	.	.	.	.	.	.	.	.	.	.
8C/	.	8e/	8c/L	.	.	.	.	.	.	.	.	.	.
8C/J	.	8e/J	8c/J	.	.	.	.	.	.	.	.	.	.
=35	=35	=35	=35	=35	=35	=35	=35	=35	=35	=35	=35	=35	=35
8C/L	.	8e/L	16g/LL	.	.	.	.	.	.	.	.	.	.
.	.	.	16e/J	.	.	.	.	.	.	.	.	.	.
8C/	.	8e/	8c/J	.	.	.	.	.	.	.	.	.	.
8C/	.	8e/	8c/L	.	.	.	.	.	.	.	.	.	.
8C/J	.	8e/J	8c/J	.	.	.	.	.	.	.	.	.	.
!LO:LB:g=original	!	!	!	!	!	!	!	!	!	!	!	!	!
=36	=36	=36	=36	=36	=36	=36	=36	=36	=36	=36	=36	=36	=36
8C/L	.	8e/L	16g/LL	.	.	.	.	.	.	.	.	.	.
.	.	.	16e/J	.	.	.	.	.	.	.	.	.	.
8C/	6 4	8e/	8c/J	.	.	.	.	.	.	.	.	.	.
8C/	.	8f/	8a\L	.	.	.	.	.	.	.	.	.	.
8C/J	.	8f/J	8a\J	.	.	.	.	.	.	.	.	.	.
=37	=37	=37	=37	=37	=37	=37	=37	=37	=37	=37	=37	=37	=37
8C/L	.	8e/L	8g/L	.	.	.	.	.	.	.	.	.	.
8C/J	.	8c/J	8c/J	.	.	.	.	.	.	.	.	.	.
4r	.	4r	4r	.	.	.	.	.	.	.	.	.	.
=38	=38	=38	=38	=38	=38	=38	=38	=38	=38	=38	=38	=38	=38
!	!	!LO:TX:a:t=9:problem= z łuczkiem	!LO:TX:a:t=9	!	!	!	!	!	!	!	!	!	!
!	!	!LO:N:vis=00	!LO:N:vis=00	!LO:N:vis=00	!	!LO:N:vis=00	!	!LO:N:vis=00	!	!LO:TX:a:t=Solo	!	!LO:N:vis=00	!LO:N:vis=00
4AA/	.	0r	0r	0r	.	0r	.	0r	.	4ee\	Vir-	0r	0r
8r	.	.	.	.	.	.	.	.	.	8cc\	-gam	.	.
8c\	.	.	.	.	.	.	.	.	.	8a\	vir-	.	.
=39	=39	=39	=39	=39	=39	=39	=39	=39	=39	=39	=39	=39	=39
8B\L	.	.	.	.	.	.	.	.	.	4dd\	-tu-	.	.
8G#X\	.	.	.	.	.	.	.	.	.	.	.	.	.
8A\	.	.	.	.	.	.	.	.	.	8cc\	-tis	.	.
!	!	!	!	!	!	!	!	!	!	!LO:TX:b:t=P:problem=oprócz znaku powtórzenia tekstu, dopisane mało widoczne słowa	!	!	!
*	*	*	*	*	*	*	*	*	*	*	*ij	*	*
8c\J	.	.	.	.	.	.	.	.	.	8ee\	vir-	.	.
=40	=40	=40	=40	=40	=40	=40	=40	=40	=40	=40	=40	=40	=40
8B\L	.	.	.	.	.	.	.	.	.	8ff\	-tu-	.	.
8A\	.	.	.	.	.	.	.	.	.	8ff\	-tis	.	.
*	*	*	*	*	*	*	*	*	*	*	*Xij	*	*
8G#X\	.	.	.	.	.	.	.	.	.	16ee\LL	tu-	.	.
.	.	.	.	.	.	.	.	.	.	16dd\	.	.	.
8E\J	.	.	.	.	.	.	.	.	.	16cc\	.	.	.
.	.	.	.	.	.	.	.	.	.	16b\JJ	.	.	.
=41	=41	=41	=41	=41	=41	=41	=41	=41	=41	=41	=41	=41	=41
8A\L	.	.	.	.	.	.	.	.	.	16cc\	-ae	.	.
.	.	.	.	.	.	.	.	.	.	16a\	e-	.	.
8Gn\J	.	.	.	.	.	.	.	.	.	16b\	-mit-	.	.
.	.	.	.	.	.	.	.	.	.	16cc\	-tet	.	.
16F\LL	.	.	.	.	.	.	.	.	.	4dd\	Do-	.	.
16E\	.	.	.	.	.	.	.	.	.	.	.	.	.
16D\	.	.	.	.	.	.	.	.	.	.	.	.	.
16F\JJ	.	.	.	.	.	.	.	.	.	.	.	.	.
=42	=42	=42	=42	=42	=42	=42	=42	=42	=42	=42	=42	=42	=42
!	!	!LO:N:vis=00	!LO:N:vis=00	!LO:N:vis=00	!	!LO:N:vis=00	!	!LO:N:vis=00	!	!	!	!LO:N:vis=00	!LO:N:vis=00
4G\	5	0r	0r	0r	.	0r	.	0r	.	16dd\LL	.	0r	0r
.	.	.	.	.	.	.	.	.	.	16b\	.	.	.
.	.	.	.	.	.	.	.	.	.	16cc\	.	.	.
.	.	.	.	.	.	.	.	.	.	16dd\JJ	.	.	.
16G\LL	6	.	.	.	.	.	.	.	.	4ee\	.	.	.
16E\	.	.	.	.	.	.	.	.	.	.	.	.	.
16F\	.	.	.	.	.	.	.	.	.	.	.	.	.
16G\JJ	.	.	.	.	.	.	.	.	.	.	.	.	.
=43	=43	=43	=43	=43	=43	=43	=43	=43	=43	=43	=43	=43	=43
4A\	3	.	.	.	.	.	.	.	.	16ee\LL	.	.	.
.	.	.	.	.	.	.	.	.	.	16cc\	.	.	.
.	.	.	.	.	.	.	.	.	.	16dd\	.	.	.
.	.	.	.	.	.	.	.	.	.	16ee\JJ	.	.	.
16A\LL	6	.	.	.	.	.	.	.	.	4ff\	-mi-	.	.
16F\	.	.	.	.	.	.	.	.	.	.	.	.	.
16G\	.	.	.	.	.	.	.	.	.	.	.	.	.
16A\JJ	.	.	.	.	.	.	.	.	.	.	.	.	.
=44	=44	=44	=44	=44	=44	=44	=44	=44	=44	=44	=44	=44	=44
8B\	.	.	.	.	.	.	.	.	.	8ff\	-nus	.	.
4c\	.	.	.	.	.	.	.	.	.	8ee\	ex	.	.
.	.	.	.	.	.	.	.	.	.	8ee\	Si-	.	.
8G\	.	.	.	.	.	.	.	.	.	8dd\	-on	.	.
=45	=45	=45	=45	=45	=45	=45	=45	=45	=45	=45	=45	=45	=45
!LO:TX:a:t=P:problem=mixed beam	!	!	!	!	!	!	!	!	!	!	!	!	!
*	*	*	*	*	*	*	*	*	*	*	*ij	*	*
8c\L	.	.	.	.	.	.	.	.	.	8ee\L	ex-	.	.
8F\	.	.	.	.	.	.	.	.	.	16dd\L	.	.	.
.	.	.	.	.	.	.	.	.	.	16cc\JJ	.	.	.
8G\	.	.	.	.	.	.	.	.	.	4b\	-Si-	.	.
8GG/J	.	.	.	.	.	.	.	.	.	.	.	.	.
!	!	!	!	!	!	!	!	!	!	!LO:LB:g=original	!	!	!
=46	=46	=46	=46	=46	=46	=46	=46	=46	=46	=46	=46	=46	=46
!	!	!	!	!	!	!LO:N:vis=00	!	!LO:N:vis=00	!	!	!	!LO:N:vis=00	!LO:N:vis=00
4C/	.	2r	2r	2r	.	0r	.	0r	.	8cc\	-on	0r	0r
*	*	*	*	*	*	*	*	*	*	*	*Xij	*	*
.	.	.	.	.	.	.	.	.	.	16f/	Do-	.	.
.	.	.	.	.	.	.	.	.	.	16f/	-mi-	.	.
4r	.	.	.	.	.	.	.	.	.	8g\	-na-	.	.
.	.	.	.	.	.	.	.	.	.	16a\	-re	.	.
.	.	.	.	.	.	.	.	.	.	16b\	in	.	.
=47	=47	=47	=47	=47	=47	=47	=47	=47	=47	=47	=47	=47	=47
!LO:N:vis=00	!	!	!	!	!	!	!	!	!	!	!	!	!
0r	.	8r	8r	8r	.	.	.	.	.	8.cc\	me-	.	.
.	.	16c/LL	16c/LL	16C/	Do-	.	.	.	.	.	.	.	.
.	.	16c/JJ	16c/JJ	16C/	-mi-	.	.	.	.	16cc\	-di-	.	.
.	.	8c/L	8c/L	8C\	-na-	.	.	.	.	4cc\	-o	.	.
.	.	16d/L	16d/L	16D\	-re	.	.	.	.	.	.	.	.
.	.	16e/JJ	16e/JJ	16E\	in	.	.	.	.	.	.	.	.
!	!	!	!LO:LB:g=original	!	!	!	!	!	!	!	!	!	!
=48	=48	=48	=48	=48	=48	=48	=48	=48	=48	=48	=48	=48	=48
.	.	8.f/L	8.f/L	8.F\	me-	.	.	.	.	8r	.	.	.
!	!	!	!	!	!	!	!	!	!	!LO:TX:b:t=P:problem=oprócz znaku powtórzenia tekstu, dopisane mało widoczne słowa	!	!	!
*	*	*	*	*	*	*	*	*	*	*	*ij	*	*
.	.	.	.	.	.	.	.	.	.	16a\	Do-	.	.
.	.	16f/Jk	16f/Jk	16F\	-di-	.	.	.	.	16a\	-mi-	.	.
.	.	4f/	4f/	4F\	-o	.	.	.	.	8a\	-na-	.	.
.	.	.	.	.	.	.	.	.	.	16b\	-re	.	.
.	.	.	.	.	.	.	.	.	.	16cc\	in	.	.
=49	=49	=49	=49	=49	=49	=49	=49	=49	=49	=49	=49	=49	=49
.	.	8r	8r	8r	.	.	.	.	.	8.dd\	me-	.	.
*	*	*	*	*	*ij	*	*	*	*	*	*	*	*
.	.	16d/LL	16d/LL	16D\	Do-	.	.	.	.	.	.	.	.
.	.	16d/JJ	16d/JJ	16D\	-mi-	.	.	.	.	16dd\	-di-	.	.
.	.	8d/L	8d/L	8D\	-na-	.	.	.	.	8dd\	-o	.	.
*	*	*	*	*	*	*	*	*	*	*	*Xij	*	*
.	.	16e/L	16e/L	16E\	-re	.	.	.	.	8dd\	I-	.	.
.	.	16f/JJ	16f/JJ	16F\	in	.	.	.	.	.	.	.	.
!	!	!	!	!LO:LB:g=original	!	!	!	!	!	!	!	!	!
=50	=50	=50	=50	=50	=50	=50	=50	=50	=50	=50	=50	=50	=50
!	!	!	!	!	!	!LO:N:vis=00	!	!LO:N:vis=00	!	!	!	!LO:N:vis=00	!LO:N:vis=00
.	.	8.g/L	8.g/L	8.G\	me-	0r	.	0r	.	8.b\	-ni-	0r	0r
.	.	16g/	16g/Jk	16G\	-di-	.	.	.	.	16b\	-mi-	.	.
.	.	8g/	8g/L	8G\	-o	.	.	.	.	8b\	-co-	.	.
*	*	*	*	*	*Xij	*	*	*	*	*	*	*	*
.	.	8e/J	8e/J	8E\	i-	.	.	.	.	8b\	-rum	.	.
=51	=51	=51	=51	=51	=51	=51	=51	=51	=51	=51	=51	=51	=51
!LO:N:vis=0	!	!	!	!	!	!	!	!	!	!LO:TX:b:t=P:problem=oprócz znaku powtórzenia tekstu, dopisane mało widoczne słowa	!	!	!
*	*	*	*	*	*	*	*	*	*	*	*ij	*	*
1r	.	8a/L	8a/L	8A\	-ni-	.	.	.	.	8cc\	ni-	.	.
.	.	8g/	8g/	8G\	-mi-	.	.	.	.	8cc\	-mi-	.	.
!	!	!	!	!LO:SIC:s=8c:v	!	!	!	!	!	!	!	!	!
.	.	8a/	8a/	8B\L	-co-	.	.	.	.	4cc\	-co-	.	.
.	.	8f/J	8f/J	8A\J	.	.	.	.	.	.	.	.	.
=52	=52	=52	=52	=52	=52	=52	=52	=52	=52	=52	=52	=52	=52
.	.	8e/L	8e/L	8E\	-rum	.	.	.	.	8cc\	-rum	.	.
*	*	*	*	*	*	*	*	*	*	*	*Xij	*	*
.	.	8f/	8f/	8F\	tu-	.	.	.	.	8dd\	tu-	.	.
!	!	!	!	!LO:TX:a:t=P:problem=mixed beam	!	!	!	!	!	!	!	!	!
.	.	8g/	8g/	8G\L	-o-	.	.	.	.	4b\	-o-	.	.
.	.	8G/J	8G/J	8GG/J	.	.	.	.	.	.	.	.	.
!LO:LB:g=original	!	!	!	!	!	!	!	!	!	!	!	!	!
=53	=53	=53	=53	=53	=53	=53	=53	=53	=53	=53	=53	=53	=53
!	!	!LO:TX:a:t=P:problem=mixed beam	!	!	!	!	!	!	!	!	!	!	!
8C/L	.	8c/L	16gg\LL	4C/	-rum	.	.	.	.	4cc\	-rum	.	.
.	.	.	16ee\J	.	.	.	.	.	.	.	.	.	.
8C/	.	8ee\	8cc\J	.	.	.	.	.	.	.	.	.	.
8C/	.	8ee\	8cc\L	4r	.	.	.	.	.	4r	.	.	.
8C/J	.	8ee\J	8cc\J	.	.	.	.	.	.	.	.	.	.
!	!	!LO:LB:g=original	!	!	!	!	!	!	!	!	!	!	!
=54	=54	=54	=54	=54	=54	=54	=54	=54	=54	=54	=54	=54	=54
!	!	!	!	!LO:N:vis=0	!	!LO:N:vis=0	!	!LO:N:vis=0	!	!LO:N:vis=0	!	!LO:N:vis=0	!LO:N:vis=0
8C/L	.	8ee\L	16gg\LL	1r	.	1r	.	1r	.	1r	.	1r	1r
.	.	.	16ee\J	.	.	.	.	.	.	.	.	.	.
8C/	.	8ee\	8cc\J	.	.	.	.	.	.	.	.	.	.
8C/	.	8ee\	8cc\L	.	.	.	.	.	.	.	.	.	.
8C/J	.	8ee\J	8cc\J	.	.	.	.	.	.	.	.	.	.
=55	=55	=55	=55	=55	=55	=55	=55	=55	=55	=55	=55	=55	=55
8C/L	.	8ee\L	16gg\LL	.	.	.	.	.	.	.	.	.	.
.	.	.	16ee\J	.	.	.	.	.	.	.	.	.	.
8C/	.	8ee\	8cc\J	.	.	.	.	.	.	.	.	.	.
8C/	.	8ff\	8aa\L	.	.	.	.	.	.	.	.	.	.
8C/J	.	8ff\J	8aa\J	.	.	.	.	.	.	.	.	.	.
=56	=56	=56	=56	=56	=56	=56	=56	=56	=56	=56	=56	=56	=56
4C/	.	8ee\L	8gg\L	8r	.	8r	.	8r	.	8r	.	8r	8r
.	.	8cc\J	8cc\J	8C/	Te-	8e\	Te-	8g\	Te-	8cc\	Te-	8ee\L	8gg\L
8r	.	8r	8r	8C/	-cum	8e\	-cum	8g\	-cum	8cc\	-cum	8ee\	8gg\
8C/	.	8ee\	8gg\	8C/	prin-	8e\	prin-	8g\	prin-	8cc\	prin-	8ee\J	8gg\J
!	!	!	!	!	!	!	!	!	!	!LO:LB:g=original	!	!	!
=57	=57	=57	=57	=57	=57	=57	=57	=57	=57	=57	=57	=57	=57
8F\L	.	8cc\L	8aa\L	8.F\	-ci-	8.c\	-ci-	8.a\	-ci-	8.cc\	-ci-	8cc\L	8aa\L
8F\	.	8cc\	8aa\	.	.	.	.	.	.	.	.	8cc\	8aa\
.	.	.	.	16F\	-pi-	16c\	-pi-	16a\	-pi-	16cc\	-pi-	.	.
8E\	.	8cc\	8gg\	8E\	-um	8c\	-um	8g\	-um	4cc\	-um	8cc\	8gg\
8E\J	.	8ee\J	8gg\J	8E\	in	8c\	in	8g\	in	.	.	8cc\J	8gg\J
=58	=58	=58	=58	=58	=58	=58	=58	=58	=58	=58	=58	=58	=58
!	!	!	!	!	!	!	!	!LO:N:vis=8	!	!	!	!	!
8D\L	.	4b\	4ff\	4D\	di-	4d\	di-	4f\	di-	4cc\	in	4dd\	4ff\
8D\	.	.	.	.	.	.	.	.	.	.	.	.	.
8C\	.	4cc\	4ee\	8C/	-e	8G/	-e	8e\	-e	8cc\	di-	8g/L	16ee\LL
.	.	.	.	.	.	.	.	.	.	.	.	.	16cc\
8C\J	.	.	.	8C/	vir-	8G/	vir-	8e\	vir-	8cc\	-e	8dd/J	16ee\
.	.	.	.	.	.	.	.	.	.	.	.	.	16gg\JJ
!	!	!	!	!	!	!	!	!LO:LB:g=original	!	!	!	!	!
=59	=59	=59	=59	=59	=59	=59	=59	=59	=59	=59	=59	=59	=59
!LO:TX:a:t=P:problem=mixed beam	!	!	!	!	!	!	!	!	!	!	!	!	!
8F\L	.	4cc\	4.dd\	8F\	-tu-	8A\	-tu-	8d\	-tu-	8cc\	vir-	4c/	4gg\
8F\	.	.	.	8F\	-tis	8A\	-tis	8d\	-tis	8cc\	-tu-	.	.
!	!	!	!	!LO:TX:a:t=P:problem=mixed beam	!	!	!	!	!	!	!	!	!
8G\	.	4b\	.	8G\L	tu-	4G/	tu-	4d\	tu-	(8cc\L	-tis	8g/L	8.dd\L
8GG/J	.	.	8dd\	8GG/J	.	.	.	.	.	8b\J)	tu-	8g/J	.
.	.	.	.	.	.	.	.	.	.	.	.	.	16dd\Jk
=60	=60	=60	=60	=60	=60	=60	=60	=60	=60	=60	=60	=60	=60
!LO:TX:a:t=P:problem=mixed beam	!	!	!	!	!	!	!	!	!	!	!	!	!
8C/L	.	8cc\L	8cc\L	8C/	-ae	8G/	-ae	8e\	-ae	8cc\	-ae	4e/	4cc\
16c\L	.	16ee\L	8gg\	16c\	in	16c\	in	16g\	in	16ee\	in	.	.
16B\JJ	.	16dd\JJ	.	16B\	splen-	16B\	splen-	16g\	splen-	16dd\	splen-	.	.
!	!	!	!	!LO:LB:g=original	!	!	!	!	!	!	!	!	!
8c\L	.	8ee\L	8gg\	8c\	-do-	8c\	-do-	8g\	-do-	8ee\	-do-	4r	4r
8B\J	.	8dd\J	8gg\J	8B\	-ri-	8B\	-ri-	8g\	-ri-	8dd\	-ri-	.	.
!	!	!	!	!	!	!LO:LB:g=original	!	!	!	!	!	!LO:LB:g=original	!
=61	=61	=61	=61	=61	=61	=61	=61	=61	=61	=61	=61	=61	=61
!	!	!	!	!	!	!	!	!	!	!	!	!LO:N:vis=00	!LO:N:vis=00
8A\L	.	8cc\L	8r	8A\	-bus	8A\	-bus	8e\	-bus	8cc\	-bus	0r	0r
16A\L	.	16cc\L	8ee\L	16A\LL	san-	16A\LL	San-	8e\	san-	16cc\LL	san-	.	.
16G\JJ	.	16b\JJ	.	16G\JJ	.	16G\JJ	.	.	.	16b\JJ	.	.	.
8A\L	.	8cc\L	8ee\	8A\L	-cto-	8A\L	-cto-	4e\	-cto-	8cc\L	-cto-	.	.
8G\J	.	8b\J	8ee\J	8G\J	.	16B\L	.	.	.	8b\J	.	.	.
.	.	.	.	.	.	16c\JJ	.	.	.	.	.	.	.
=62	=62	=62	=62	=62	=62	=62	=62	=62	=62	=62	=62	=62	=62
8F#X\L	.	8a\L	8r	8F\	-rum	8d\	-rum	8f#X\	-rum	8a\	-rum	.	.
16d\L	.	8a\	8ff#X\L	16d\LL	ex	8d\	ex	8f#\	ex	8a\	ex	.	.
16c\JJ	.	.	.	16c\JJ	.	.	.	.	.	.	.	.	.
8d\L	.	8a\	8ff#\	8d\	u-	8d\	u-	8.f#\	u-	8.a\	u-	.	.
8c\J	.	8a\J	8ff#\J	8c\	-te-	8d\	-te-	.	.	.	.	.	.
.	.	.	.	.	.	.	.	16f#\	-te-	16a\	-te-	.	.
!	!	!	!LO:LB:g=original	!	!	!	!	!	!	!	!	!	!
=63	=63	=63	=63	=63	=63	=63	=63	=63	=63	=63	=63	=63	=63
4B\	.	4b\	4gg\	4B\	-ro	4d\	-ro	4g\	-ro	4b\	-ro	.	.
8G\L	.	8b\L	8gg\L	8G\	an-	8d\	An-	8g\	an-	8b\	an-	.	.
16A\L	.	16cc\L	8ff#X\J	16A\	-te	16c\	-te	16f#X\	-te	16cc\	-te	.	.
16B\JJ	.	16dd\JJ	.	16B\	lu-	16B\	Lu-	16f#\	Lu-	16dd\	lu-	.	.
=64	=64	=64	=64	=64	=64	=64	=64	=64	=64	=64	=64	=64	=64
8c\L	.	4g\	4ee\	4c\	-ci-	4c\	-ci-	4e\	-ci-	4ee\	-ci-	.	.
8c\	.	.	.	.	.	.	.	.	.	.	.	.	.
8A\	.	4cc\	8ff#X\L	8A\	-fe-	8c\	-fe-	8a\	-fe-	8ee\	-fe-	.	.
8A\J	6\	.	8ee\J	8A\	-rum	8c\	-rum	8a\	-rum	8ff#X\	-rum	.	.
=65	=65	=65	=65	=65	=65	=65	=65	=65	=65	=65	=65	=65	=65
!LO:SIC:s=8B:v	!	!	!	!	!	!	!	!	!	!	!	!	!
8B#X\L	.	8f#X/L	8dd#X\	8B\L	ge-	4B\	ge-	8f#X\L	ge-	(8dd#X\L	ge-	2r	2r
8G\	.	8g/J	4ee\	8G\J	.	.	.	8g\J	.	8ee\J)	.	.	.
8A\	.	8.f#/L	.	8A\	-nu-	8c\	-nu-	8.f#\	-nu-	8ee\	-nu-	.	.
8B#\J	.	.	8dd#\	8B\	-i	8B\	-i	.	.	8dd#X\	-i	.	.
.	.	16f#/Jk	.	.	.	.	.	16f#\	-i	.	.	.	.
!LO:LB:g=original	!	!	!	!	!	!	!	!	!	!	!	!	!
=66	=66	=66	=66	=66	=66	=66	=66	=66	=66	=66	=66	=66	=66
8E\L	#	4g#X/	4ee\	4E\	te	4B\	te	4e\	te	4ee\	te	8e/L	8e/L
8E\	.	.	.	.	.	.	.	.	.	.	.	8e/	8e/
8E\	.	8r	8r	4E\	Iu-	4e\	Iu-	4g#X\	Iu-	4b\	Iu-	8e/	8e/
!	!	!LO:N:vis=4	!	!	!	!	!	!	!	!	!	!	!
8E\J	.	8g#/	8b\	.	.	.	.	.	.	.	.	8e/J	8e/J
!	!	!	!	!	!	!	!	!	!	!LO:LB:g=original	!	!	!
=67	=67	=67	=67	=67	=67	=67	=67	=67	=67	=67	=67	=67	=67
!	!	!LO:SIC:s=2g#:v	!	!	!	!	!	!	!	!	!	!	!
8E\L	.	8g/L	16b/LL	4E\	-ra-	4e\	-ra-	4g\	-ra-	4b\	-ra-	8e/L	8e/L
.	.	.	16g#X/J	.	.	.	.	.	.	.	.	.	.
8E\	.	8g/	8e/J	.	.	.	.	.	.	.	.	8e/	8e/
!	!	!	!	!	!	!	!	!LO:LB:g=original	!	!	!	!	!
8E\	.	8g/	8e/L	4E\	-vit	4e\	-vit	4g\	-vit	4b\	-vit	8e/	8e/
8E\J	.	8g/J	8e/J	.	.	.	.	.	.	.	.	8e/J	8e/J
!	!	!LO:LB:g=original	!	!	!	!	!	!	!	!	!	!	!
=68	=68	=68	=68	=68	=68	=68	=68	=68	=68	=68	=68	=68	=68
8E\L	.	16cc\LL	16cc/LL	4.E\	Do-	4.e\	Do-	4.a\	Do-	4.cc\	Do-	8e/L	8e/L
.	.	16a\J	16a/J	.	.	.	.	.	.	.	.	.	.
8E\	6 4	8e\J	8e/J	.	.	.	.	.	.	.	.	8e/	8e/
8E\	.	8e/L	8e/L	.	.	.	.	.	.	.	.	8e/	8e/
8E\J	.	8e/J	8e/J	8E\	-mi-	8e\	-mi-	8a\	-mi-	8cc\	-mi-	8e/J	8e/J
=69	=69	=69	=69	=69	=69	=69	=69	=69	=69	=69	=69	=69	=69
8E\L	.	16b\LL	16b/LL	4E\	-nus	4e\	-nus	4g#X\	-nus	4b\	-nus	4e/	4e/
.	.	16g#X\J	16g#X/J	.	.	.	.	.	.	.	.	.	.
8E\	.	8e\J	8e/J	.	.	.	.	.	.	.	.	.	.
8C\	.	8e/L	8ee\L	4C\	et	4e\	et	4a\	et	4ee\	et	4e/	4e/
8C\J	.	8e/J	8ee\J	.	.	.	.	.	.	.	.	.	.
=70	=70	=70	=70	=70	=70	=70	=70	=70	=70	=70	=70	=70	=70
8F\L	.	16ee\LL	16ee\LL	4Fn\	non	4c\	non	4a\	non	4ee\	non	2r	2r
.	.	16cc\J	16cc\J	.	.	.	.	.	.	.	.	.	.
8F\	.	8a\J	8a\J	.	.	.	.	.	.	.	.	.	.
!	!	!	!	!LO:LB:g=original	!	!	!	!	!	!	!	!	!
8BB\	.	8dd\L	8dd\L	8BB/	pae-	8f\	pae-	8b\	pae-	8ddn\	pae-	.	.
8BB\J	.	8dd\J	8dd\J	8BB/	-ni-	8f\	-ni-	8a\	-ni-	8dd\	-ni-	.	.
!	!	!	!	!	!	!	!	!	!	!	!	!	!LO:LB:g=original
=71	=71	=71	=71	=71	=71	=71	=71	=71	=71	=71	=71	=71	=71
8E\L	.	16dd\LL	16dd\LL	4E\	-te-	4B\	-te-	4g#X\	-te-	4dd\	-te-	8e/L	8e/L
.	.	16b\J	16b\J	.	.	.	.	.	.	.	.	.	.
8E\J	#	8g#X\J	8g#X\J	.	.	.	.	.	.	.	.	8e/	8e/
8AA/L	.	8cc\L	8cc\L	4AA/	-bit	4e\	-bit	4a\	-bit	4cc\	-bit	8e/	8e/
8AA/J	.	8cc\J	8cc\J	.	.	.	.	.	.	.	.	8e/J	8e/J
=72	=72	=72	=72	=72	=72	=72	=72	=72	=72	=72	=72	=72	=72
*	*	*	*	*	*	*	*	*	*	*2\right	*	*	*
!LO:TX:a:t=P:problem=mixed beam	!	!	!	!	!	!	!	!	!	!	!	!	!
8D\L	.	4.b\	4.b\	(4D\	e-	4f\	e-	(4a\	e-	2b\	e-	4r	4r
8D\	.	.	.	.	.	.	.	.	.	.	.	.	.
8E\	.	.	.	4E\)	.	4e\	-um	4g#X\)	.	.	.	4e/	4e/
8EE/J	.	8b\	8b\	.	.	.	.	.	.	.	.	.	.
!	!	!	!	!	!	!LO:LB:g=original	!	!	!	!	!	!	!
=73	=73	=73	=73	=73	=73	=73	=73	=73	=73	=73	=73	=73	=73
8AA/L	.	8a\L	8a\L	8AA/	-um	(8e\	Tu-	8a\	-um	8a\	-um	4e/	4e/
8AA/	.	8ee\	8ee\	8A\	Tu	8c#X\)	.	8a\	Tu	8ee\	Tu	.	.
8AA/	.	8ee\	8ee\	8A\	es	8c#\	-es	8a\	es	8ee\	es	4r	4r
8AA/J	.	8ee\J	8ee\J	8A\	Sa-	8c#\	Sa-	8a\	Sa-	8ee\	Sa-	.	.
=74	=74	=74	=74	=74	=74	=74	=74	=74	=74	=74	=74	=74	=74
8D\L	.	16ff\LL	16ff\LL	8d\	-cer-	8d\	-cer-	8a\	-cer-	8ff\	-cer-	2r	2r
.	.	16dd\J	16dd\J	.	.	.	.	.	.	.	.	.	.
8D\	.	8a\J	8b\J	8d\	-dos	8d\	-dos	8a\	-dos	8ff\	-dos	.	.
8D\	.	8ff\L	8ff\L	8d\	in	8d\	in	8a\	in	8ff\	in	.	.
8D\J	.	8ff\J	8ff\J	8d\	ae-	8d\	ae-	8a\	ae-	8ff\	ae-	.	.
=75	=75	=75	=75	=75	=75	=75	=75	=75	=75	=75	=75	=75	=75
8BB/L	.	16ff\LL	16ff\LL	2Bn\	-ter-	2d\	-ter-	2gn\	-ter-	2ff\	-ter-	8g/L	8dd\L
.	.	16dd\	16dd\	.	.	.	.	.	.	.	.	.	.
8BB/	.	16b\	16b\	.	.	.	.	.	.	.	.	8g/	8dd\
.	.	16g#X\JJ	16g\JJ	.	.	.	.	.	.	.	.	.	.
8BB/	.	8ff\L	8ff\L	.	.	.	.	.	.	.	.	8g/	8dd\
8BB/J	.	8ff\J	8ff\J	.	.	.	.	.	.	.	.	8g/J	8dd\J
!	!	!	!LO:LB:g=original	!	!	!	!	!	!	!	!	!	!
=76	=76	=76	=76	=76	=76	=76	=76	=76	=76	=76	=76	=76	=76
8C/L	.	8cc\L	16ee\LL	8c\	-num	8c\	-num	8g\	-num	8ee\	-num	8cc\L	8ee\L
.	.	.	16cc\J	.	.	.	.	.	.	.	.	.	.
8C/	.	8cc\	8g\J	8C/	se-	8c\	se-	8g\	se-	8ee\	se-	8cc\	8ee\
8C/	.	8cc\	8ee\L	8C/	-cun-	8c\	-cun-	8g\	-cun-	8ee\	-cun-	8cc\	8ee\
8C/J	.	8cc\J	8ee\J	8C/	-dum	8c\	-dum	8g\	-dum	8ee\	-dum	8cc\J	8ee\J
=77	=77	=77	=77	=77	=77	=77	=77	=77	=77	=77	=77	=77	=77
4.C/	.	4.cc\	4.ee\	4.C/	Or-	4.E/	Or-	4.g\	Or-	4.ee\	Or-	4.ee\	4.gg\
8D/	.	8b\	8dd\	8D\	-di-	8F/	-di-	8f\	-di-	8dd\	-di-	8dd\	8ff\
!	!	!	!	!	!	!	!	!LO:LB:g=original	!	!	!	!	!
=78	=78	=78	=78	=78	=78	=78	=78	=78	=78	=78	=78	=78	=78
!LO:TX:a:t=P:problem=mixed beam	!	!	!	!	!	!	!	!	!	!	!	!	!
8E\L	.	8cc\L	8cc\L	8E\	-nem	8G/	-nem	8e\	-nem	8cc\	-nem	8cc\L	16ee\LL
.	.	.	.	.	.	.	.	.	.	.	.	.	16gg\
8F\	.	8dd\	8dd\	8F\	Mel-	8A/	Mel-	8d\	Mel-	8dd\	Mel-	16dd\L	16ff\
.	.	.	.	.	.	.	.	.	.	.	.	16cc\JJ	16ee\JJ
8G\	.	8g\	8g\	8.G\	-chi-	8.G/	-chi-	8.d\	-chi-	8.b\	-chi-	8g/L	8.dd\L
8GG/J	.	8b\J	8b\J	.	.	.	.	.	.	.	.	8g/J	.
!	!	!	!	!	!	!	!	!	!	!LO:LB:g=original	!	!	!
.	.	.	.	16GG/	-se-	16G/	-se-	16d\	-se-	16b\	-se-	.	16dd\Jk
=79	=79	=79	=79	=79	=79	=79	=79	=79	=79	=79	=79	=79	=79
4C/	.	4cc\	4cc\	8C/	-dech	4G/	-dech	4e\	-dech	4cc\	-dech	4e/	4cc\
.	.	.	.	16C/	Do-	.	.	.	.	.	.	.	.
.	.	.	.	16D\	-mi-	.	.	.	.	.	.	.	.
8r	.	4r	4r	8E\	-nus	4r	.	4r	.	4r	.	4r	4r
8E\	.	.	.	8C\	a	.	.	.	.	.	.	.	.
!	!	!	!	!LO:LB:g=original	!	!	!	!	!	!	!	!	!
=80	=80	=80	=80	=80	=80	=80	=80	=80	=80	=80	=80	=80	=80
!	!	!LO:TX:a:t=1:problem= z łuczkiem	!	!	!	!LO:N:vis=00	!	!LO:N:vis=00	!	!LO:N:vis=00	!	!LO:N:vis=00	!LO:N:vis=00
4F\	.	2r	2r	8A\	dex-	0r	.	0r	.	0r	.	0r	0r
.	.	.	.	8A\	-tris	.	.	.	.	.	.	.	.
8r	.	.	.	8.G\L	tu-	.	.	.	.	.	.	.	.
!LO:LB:g=original	!	!	!	!	!	!	!	!	!	!	!	!	!
8BB/	.	.	.	.	.	.	.	.	.	.	.	.	.
.	.	.	.	16F\Jk	.	.	.	.	.	.	.	.	.
=81	=81	=81	=81	=81	=81	=81	=81	=81	=81	=81	=81	=81	=81
8C\L	.	8r	8r	8E\	-is	.	.	.	.	.	.	.	.
8E\	.	8g/L	8g/L	8G\	a	.	.	.	.	.	.	.	.
8F\	.	8a/	8a/	8A\	dex-	.	.	.	.	.	.	.	.
8G\J	.	8b/J	8b/J	8B\	-tris	.	.	.	.	.	.	.	.
=82	=82	=82	=82	=82	=82	=82	=82	=82	=82	=82	=82	=82	=82
4C/	.	16cc/LL	16cc/LL	8c\	tu-	.	.	.	.	.	.	.	.
.	.	16g/	16g/	.	.	.	.	.	.	.	.	.	.
.	.	16e/	16e/	8C/	-is	.	.	.	.	.	.	.	.
.	.	16c/JJ	16c/JJ	.	.	.	.	.	.	.	.	.	.
!	!	!LO:LB:g=original	!	!	!	!	!	!	!	!	!	!	!
8r	.	8cc\L	8cc\L	8r	.	.	.	.	.	.	.	.	.
8G\	.	8g\J	8g\J	8B\	Con-	.	.	.	.	.	.	.	.
=83	=83	=83	=83	=83	=83	=83	=83	=83	=83	=83	=83	=83	=83
8E\L	.	8c/L	8c/L	16c\LL	-fre-	.	.	.	.	.	.	.	.
.	.	.	.	16B\J	.	.	.	.	.	.	.	.	.
8E\	6	8c/	8g/	8c\J	.	.	.	.	.	.	.	.	.
8E\	.	8c/	8g/	8G\L	.	.	.	.	.	.	.	.	.
8E\J	.	8c/J	8g/J	8B-X\J	.	.	.	.	.	.	.	.	.
=84	=84	=84	=84	=84	=84	=84	=84	=84	=84	=84	=84	=84	=84
!	!	!	!	!	!	!LO:N:vis=00	!	!LO:N:vis=00	!	!LO:N:vis=00	!	!LO:N:vis=00	!LO:N:vis=00
8F\L	.	8c/L	8a\L	8A\L	.	0r	.	0r	.	0r	.	0r	0r
8F\	.	8c/	8a\	8F\J	.	.	.	.	.	.	.	.	.
8F\	.	8c/	8a\	8C/	-git	.	.	.	.	.	.	.	.
*	*	*	*	*	*ij	*	*	*	*	*	*	*	*
8F\J	.	8c/J	8a\J	8A\	Con-	.	.	.	.	.	.	.	.
=85	=85	=85	=85	=85	=85	=85	=85	=85	=85	=85	=85	=85	=85
8F#X\L	.	8d/L	8a\L	16d\LL	-fre-	.	.	.	.	.	.	.	.
.	.	.	.	16c\J	.	.	.	.	.	.	.	.	.
8F#\	.	8d/	8a\	8d\J	.	.	.	.	.	.	.	.	.
8F#\	.	8d/	8a\	8A\L	.	.	.	.	.	.	.	.	.
8F#\J	.	8d/J	8a\J	8c\J	.	.	.	.	.	.	.	.	.
=86	=86	=86	=86	=86	=86	=86	=86	=86	=86	=86	=86	=86	=86
8G\L	.	8d/L	8b\L	8Bn\L	.	.	.	.	.	.	.	.	.
8G\	.	8d/	8b\	8G\J	.	.	.	.	.	.	.	.	.
8G\	.	8d/	8b\	8D\	-git	.	.	.	.	.	.	.	.
*	*	*	*	*	*Xij	*	*	*	*	*	*	*	*
8G\J	.	8d/J	8b\J	8B\	in	.	.	.	.	.	.	.	.
=87	=87	=87	=87	=87	=87	=87	=87	=87	=87	=87	=87	=87	=87
8C\L	.	4e/	4cc\	8E\	di-	.	.	.	.	.	.	.	.
8C\	.	.	.	8E\	-e	.	.	.	.	.	.	.	.
8E\	.	4r	4r	8F#X\	i-	.	.	.	.	.	.	.	.
8C\J	.	.	.	8F#\	-rae	.	.	.	.	.	.	.	.
=88	=88	=88	=88	=88	=88	=88	=88	=88	=88	=88	=88	=88	=88
8BB/L	.	2r	2r	8G\	su-	2r	.	2r	.	2r	.	2r	2r
8C/	.	.	.	8A\	-ae	.	.	.	.	.	.	.	.
!	!	!	!	!LO:LB:g=original	!	!	!	!	!	!	!	!	!
8D/	.	.	.	4F#X\	re-	.	.	.	.	.	.	.	.
8DD/J	.	.	.	.	.	.	.	.	.	.	.	.	.
=89	=89	=89	=89	=89	=89	=89	=89	=89	=89	=89	=89	=89	=89
!LO:TX:a:t=P:problem=mixed beam	!	!	!	!	!	!	!	!	!	!	!	!	!
8GG/L	.	8b\L	16dd\LL	4G\	-ges	4r	.	4r	.	4r	.	8r	8r
.	.	.	16b\J	.	.	.	.	.	.	.	.	.	.
8G\	.	8b\	8g\J	.	.	.	.	.	.	.	.	8dd\L	8dd\L
8G\	.	8b\	8g/L	8G\	Iu-	8B\	Iu-	8g\	Iu-	8dd\	Iu-	8dd\	8dd\
8G\J	.	8b\J	8g/J	8G\	-di-	8B\	-di-	8g\	-di-	8dd\	-di-	8dd\J	8dd\J
=90	=90	=90	=90	=90	=90	=90	=90	=90	=90	=90	=90	=90	=90
8G\L	.	8b\L	16dd\LL	4G\	-ca-	4B\	-ca-	4g\	-ca-	4dd\	-ca-	8g/L	8dd\L
.	.	.	16b\J	.	.	.	.	.	.	.	.	.	.
8G\	.	8b\	8g\J	.	.	.	.	.	.	.	.	8g/	8dd\
8G\	.	8b\	8g/L	8G\	-bit	8B\	-bit	8g\	-bit	8dd\	-bit	8g/	8dd\
8G\J	.	8b\J	8g/J	8G\	in	8B\	in	8g\	in	8dd\	in	8g/J	8dd\J
!	!	!	!	!	!	!	!	!	!	!	!	!LO:LB:g=original	!
=91	=91	=91	=91	=91	=91	=91	=91	=91	=91	=91	=91	=91	=91
8G\L	.	8b\L	16dd\LL	8G\	na-	8B\	na-	8g\	na-	8dd\	na-	8g/L	8dd\L
.	.	.	16b\J	.	.	.	.	.	.	.	.	.	.
8G\	.	8b\	8g\J	8G\	-ti-	8B\	-ti-	8g\	-ti-	8dd\	-ti-	8g/	8dd\
8G\	6 4	8cc\	8ee\L	8.G\	-o-	8.c\	-o-	8.g\	-o-	8.ee\	-o-	8cc/	8ee\
8G\J	.	8cc\J	8ee\J	.	.	.	.	.	.	.	.	8cc/J	8ee\J
.	.	.	.	16G\	-ni-	16c\	-ni-	16g\	-ni-	16ee\	-ni-	.	.
!	!	!	!	!	!	!LO:LB:g=original	!	!	!	!	!	!	!
=92	=92	=92	=92	=92	=92	=92	=92	=92	=92	=92	=92	=92	=92
4G\	.	8b\L	8dd\L	4G\	-bus	4B\	-bus	4g\	-bus	4dd\	-bus	4g/	4dd\
.	.	8b\	8g\J	.	.	.	.	.	.	.	.	.	.
8r	.	8b\	4gg\	8r	.	8r	.	8r	.	8r	.	8r	8r
!	!	!	!	!	!	!	!	!	!	!LO:TX:b:t=P:problem=oprócz znaku powtórzenia tekstu, dopisane mało widoczne słowa	!	!	!
*	*	*	*	*	*ij	*	*ij	*	*ij	*	*ij	*	*
8G\	.	8b\J	.	8G\	in	8d\	in	8g\	in	8b\	in	8g/	8dd\
!	!	!	!LO:LB:g=original	!	!	!	!	!	!	!	!	!	!
=93	=93	=93	=93	=93	=93	=93	=93	=93	=93	=93	=93	=93	=93
!	!	!	!	!	!	!	!	!	!	!	!	!LO:TX:a:t=P:problem=mixed beam	!
8E\L	.	8cc\L	16gg\LL	8E\	na-	8e\	na-	8g\	na-	8cc\	na-	8cc\L	8ee\L
.	.	.	16ee\J	.	.	.	.	.	.	.	.	.	.
8E\	.	8cc\	8cc\J	8E\	-ti-	8e\	-ti-	8g\	-ti-	8cc\	-ti-	8c/	8ee\
8Fn\	.	8cc\	8aa\L	8.Fn\	-o-	8.c\	-o-	8.a\	-o-	8.cc\	-o-	8c/	8cc\
8F\J	.	8cc\J	8aa\J	.	.	.	.	.	.	.	.	8c/J	8cc\J
.	.	.	.	16F\	-ni-	16e\	-ni-	16a\	-ni-	16cc\	-ni-	.	.
=94	=94	=94	=94	=94	=94	=94	=94	=94	=94	=94	=94	=94	=94
4C/	.	8ee\L	8gg\L	4C/	-bus	4e\	-bus	4g\	-bus	4cc\	-bus	4c/	4ee\
*	*	*	*	*	*Xij	*	*Xij	*	*Xij	*	*Xij	*	*
.	.	8ee\	8cc\J	.	.	.	.	.	.	.	.	.	.
8r	.	8cc\	4ffn\	8r	.	8r	.	8r	.	8r	.	8r	8r
!LO:LB:g=original	!	!	!	!	!	!	!	!	!	!	!	!	!
8A\	.	8cc\J	.	8A\	im-	8c\	im-	8a\	im-	8ff\	im-	8c/	8cc\
!	!	!	!	!	!	!	!	!	!	!	!	!	!LO:LB:g=original
=95	=95	=95	=95	=95	=95	=95	=95	=95	=95	=95	=95	=95	=95
*	*	*	*	*	*	*	*	*2\right	*	*	*	*	*
!	!	!	!	!LO:SIC:s=4B:v	!	!	!	!LO:SIC:s=2g:v	!	!	!	!	!
4B\	.	8dd\L	16ff\LL	4c\	-ple-	(4d\	-ple-	2a\	-ple-	4ff\	-ple-	4g/	4dd\
.	.	.	16dd\J	.	.	.	.	.	.	.	.	.	.
.	.	8dd\	8b\J	.	.	.	.	.	.	.	.	.	.
4c\	.	8b\	8ee\L	4c\	-bit	4c\)	.	.	.	4ee\	-bit	4cc\	4ee\
.	.	8b\J	8ee\J	.	.	.	.	.	.	.	.	.	.
!	!	!	!	!	!	!	!	!LO:LB:g=original	!	!	!	!	!
=96	=96	=96	=96	=96	=96	=96	=96	=96	=96	=96	=96	=96	=96
!	!	!	!	!	!	!	!	!	!	!LO:TX:b:t=P:problem=oprócz znaku powtórzenia tekstu, dopisane mało widoczne słowa	!	!	!
*	*	*	*	*	*ij	*	*	*	*	*	*ij	*	*
8F\L	7	8a/L	16ee\LL	4F\	im-	4c\	-bit	4a\	-bit	4ee\	im-	4c/	4cc\
.	.	.	16cc\J	.	.	.	.	.	.	.	.	.	.
8F\	.	8a/	8a\J	.	.	.	.	.	.	.	.	.	.
*	*	*	*	*	*	*	*ij	*	*ij	*	*	*	*
8F\	6	8a/	8dd\L	4F\	-ple-	4A\	im-	4a\	im-	4dd\	-ple-	4r	4r
8F\J	.	8a/J	8dd\J	.	.	.	.	.	.	.	.	.	.
=97	=97	=97	=97	=97	=97	=97	=97	=97	=97	=97	=97	=97	=97
8E\L	7	8g/L	16dd\LL	4E\	-bit	4B\	-ple-	4g\	-ple-	4dd\	-bit	4r	4r
*	*	*	*	*	*Xij	*	*	*	*	*	*Xij	*	*
.	.	.	16b\J	.	.	.	.	.	.	.	.	.	.
8E\	.	8g/	8g\J	.	.	.	.	.	.	.	.	.	.
8E\	6	8g/	8cc\L	8E\	.	8e\	-bit	8g\	-bit	8cc\	.	8r	8r
*	*	*	*	*	*	*	*Xij	*	*Xij	*	*	*	*
8E\J	.	8g/J	8cc\J	8E\	ru-	8e\	ru-	8g\	ru-	8cc\	ru-	8cc\	8gg\
!	!	!LO:LB:g=original	!	!	!	!	!	!	!	!LO:LB:g=original	!	!	!
=98	=98	=98	=98	=98	=98	=98	=98	=98	=98	=98	=98	=98	=98
!LO:TX:a:t=P:problem=mixed beam	!	!	!	!	!	!	!	!	!	!	!	!	!
8F\L	.	8a/L	8cc\L	4F\	.	2d\	-i-	4a\	-i-	(4cc\	-i-	8cc\L	16aa\LL
.	.	.	.	.	.	.	.	.	.	.	.	.	16gg\
8F\	.	8a/	8dd\	.	.	.	.	.	.	.	.	16dd\L	16ff\
.	.	.	.	.	.	.	.	.	.	.	.	16cc\JJ	16ee\JJ
!	!	!	!	!LO:TX:a:t=P:problem=mixed beam	!	!	!	!	!	!	!	!	!
8G\	.	8.a/	8g\	8G\L	-i-	.	.	4g\	-nas	4b\)	.	8g/L	8.dd\L
8GG/J	.	.	8b\J	8GG/J	.	.	.	.	.	.	.	8g/J	.
.	.	16g/Jk	.	.	.	.	.	.	.	.	.	.	16dd\Jk
=99	=99	=99	=99	=99	=99	=99	=99	=99	=99	=99	=99	=99	=99
!LO:TX:a:t=P:problem=mixed beam	!	!LO:TX:a:t=P:problem=mixed beam	!	!	!	!	!	!	!	!	!	!	!
8C/L	.	8e/L	16cc\LL	8C/	-nas	8e\	-nas	8g\	.	8cc\	-nas	8e/L	8cc\L
.	.	.	16gg\	.	.	.	.	.	.	.	.	.	.
!	!	!	!	!LO:LB:g=original	!	!	!	!	!	!	!	!	!
16c\L	.	16ee\L	16gg\	16c\	con-	16c\	con-	16g\	con-	16ee\	con-	8g/	16ee\L
16B\JJ	.	16dd\JJ	16gg\JJ	16B\	-quaſ-	16B\	-quaſ-	16g\	-quaſ-	16dd\	-quaſ-	.	16dd\JJ
8c\L	.	8ee\L	16gg\LL	8c\	-sa-	8c\	-sa-	8g\	-sa-	8ee\	-sa-	8g/	8ee\L
.	.	.	16gg\	.	.	.	.	.	.	.	.	.	.
8G\J	.	8cc\J	16gg\	8G\	-bit	8d\	-bit	8g\	-bit	8b\	-bit	8g/J	8dd\J
.	.	.	16gg\JJ	.	.	.	.	.	.	.	.	.	.
=100	=100	=100	=100	=100	=100	=100	=100	=100	=100	=100	=100	=100	=100
!	!	!LO:TX:a:t=P:problem=mixed beam	!	!	!	!	!	!	!	!	!	!	!
!	!	!LO:TX:a:t=P:problem=takt zapisany powtórką	!	!	!	!	!	!	!	!	!	!	!
8r	.	8e/Lyy	16gg\LL	8r	.	8r	.	8r	.	8r	.	8r	8r
.	.	.	16gg\	.	.	.	.	.	.	.	.	.	.
!	!	!	!	!	!	!	!	!	!	!LO:TX:b:t=P:problem=oprócz znaku powtórzenia tekstu, dopisane mało widoczne słowa	!	!	!
*	*	*	*	*	*ij	*	*ij	*	*ij	*	*ij	*	*
16c\LL	.	16ee\Lyy	16gg\	16c\	con-	16c\	con-	16g\	con-	16ee\	con-	8g/L	16ee\LL
16B\JJ	.	16dd\JJyy	16gg\JJ	16B\	-quaſ-	16B\	-quaſ-	16g\	-quaſ-	16dd\	-quaſ-	.	16dd\JJ
8c\L	.	8ee\Lyy	16gg\LL	8c\	-sa-	8c\	-sa-	8g\	-sa-	8ee\	-sa-	8g/	8ee\L
.	.	.	16gg\	.	.	.	.	.	.	.	.	.	.
8G\J	.	8b\Jyy	16gg\	8G\	-bit	8d\	-bit	8g\	-bit	8b\	-bit	8g/J	8dd\J
*	*	*	*	*	*Xij	*	*Xij	*	*Xij	*	*Xij	*	*
.	.	.	16gg\JJ	.	.	.	.	.	.	.	.	.	.
=101	=101	=101	=101	=101	=101	=101	=101	=101	=101	=101	=101	=101	=101
!	!	!	!	!	!	!	!	!	!	!	!	!LO:TX:a:t=P:problem=takt zapisany powtórką z adnotacją "bis"	!
8c\L	.	8ee\L	16gg\LL	8c\	ca-	8c\	ca-	8.g\	ca-	8ee\	Ca-	8r	8gg\L
.	.	.	16gg\	.	.	.	.	.	.	.	.	.	.
8B\	.	8dd\	16gg\	8B\	-pi-	8B\	-pi-	.	.	8dd\	-pi-	8g/L	8gg\
.	.	.	16gg\JJ	.	.	.	.	16g\	-pi-	.	.	.	.
8A\	6\	8cc\	16ff#X\LL	8A\	-ta	8c\	-ta	8f#X\	-ta	8cc\	-ta	8g/	8ff#X\
.	.	.	16gg\	.	.	.	.	.	.	.	.	.	.
8G\J	.	8b\J	16gg\	8G\	in	8d\	in	8f#\	in	8b\	in	8g/J	8gg\J
!	!	!	!	!	!	!	!	!	!	!	!	!LO:TX:a:t=P:problem=9 taktów skreślonych	!
.	.	.	16gg\JJ	.	.	.	.	.	.	.	.	.	.
!	!	!	!	!	!	!	!	!	!	!	!	!LO:LB:g=original	!
=102	=102	=102	=102	=102	=102	=102	=102	=102	=102	=102	=102	=102	=102
!LO:TX:a:t=P:problem=mixed beam	!	!	!	!	!	!	!	!LO:SIC:s=8f#:v	!	!	!	!	!
8d\L	.	4a\	8ff#X\L	8d\	ter-	8d\	ter-	8f\	ter-	8a\	ter-	4dd\	4ff#X\
8D/J	.	.	8dd\J	8D/	-ra	8d\	-ra	8f\	-ra	8a\	-ra	.	.
*	*	*	*	*	*ij	*	*	*	*	*	*	*	*
8r	.	8r	8r	4D/	in	8r	.	8r	.	8r	.	4r	8r
*	*	*	*	*	*	*	*ij	*	*	*	*	*	*
8DD/	.	8a\	8ff#\	.	.	8d\	ca-	8f\	in	8a\	mul-	.	8dd\
!	!	!	!	!	!	!LO:LB:g=original	!	!	!	!	!	!	!
=103	=103	=103	=103	=103	=103	=103	=103	=103	=103	=103	=103	=103	=103
!	!	!	!	!	!	!	!	!LO:SIC:s=8f#:v	!	!	!	!LO:TX:a:t=2	!
!	!	!	!	!	!	!	!	!	!	!	!	!LO:N:vis=0	!
[>2DD/	.	8a\L	8ff#X\L	2D\	ter-	2d\	-pi-	(8f\L	ter-	8a\L	-to-	1r	2dd\
.	.	8b\	(8gg\	.	.	.	.	8g\J	.	8b\J	.	.	.
.	.	8b\	8gg\	.	.	.	.	8g\)	-ra	8b\	.	.	.
.	.	8cc\J	8aa\J)	.	.	.	.	8a\	mul-	8cc\	.	.	.
=104	=104	=104	=104	=104	=104	=104	=104	=104	=104	=104	=104	=104	=104
2DD/]	.	8cc\L	8aa\L	4.D\	-ra	4.d\	-ta	8a\L	-to-	8cc\L	.	.	2dd\
.	.	8b\	8gg\	.	.	.	.	8g\J	.	8b\J	.	.	.
.	.	8b\	8gg\	.	.	.	.	8g\	-rum	8b\	.	.	.
!	!	!	!	!	!	!	!	!LO:LB:g=original	!	!	!	!	!
.	.	8a\J	8ff#X\J	8D\	in	8d\	in	8f#X\	in	8a\	.	.	.
!	!	!	!LO:LB:g=original	!	!	!	!	!	!	!	!	!	!
=105	=105	=105	=105	=105	=105	=105	=105	=105	=105	=105	=105	=105	=105
!	!	!	!	!	!	!	!	!	!	!	!	!LO:TX:a:t=P:problem=mixed beam	!
8GG/L	.	8b\L	8gg\L	8G\	ter-	8d\	ter-	8g\	ter-	8b\	.	8g/L	8dd\
8C/	.	8cc\	8aa\	16C\	-ra	16e\	-ra	16a\	-ra	8a\	-rum	8ee\	4gg\
*	*	*	*	*	*Xij	*	*Xij	*	*	*	*	*	*
.	.	.	.	16C\	mul-	16e\	mul-	16g\	mul-	.	.	.	.
8D/	.	8.a\	8dd\	4D\	-to-	4d\	-to-	4f#X\	-to-	8a\	mul-	8dd\	.
8DD/J	.	.	8ff#X\J	.	.	.	.	.	.	8a\	-to-	8dd\J	8ff#X\
.	.	16a\Jk	.	.	.	.	.	.	.	.	.	.	.
=106	=106	=106	=106	=106	=106	=106	=106	=106	=106	=106	=106	=106	=106
4GG/	.	4g/	4gg\	8GG/	-rum	4d\	-rum	4g\	-rum	8g\	-rum	4dd\	4gg\
!	!	!	!	!	!	!	!	!	!	!LO:LB:g=original	!	!	!
!	!	!	!	!LO:TX:a:t=Solo	!	!	!	!	!	!LO:TX:a:t=Solo	!	!	!
.	.	.	.	16B\	De	.	.	.	.	16dd\	de	.	.
.	.	.	.	16A\	to-	.	.	.	.	16cc\	to-	.	.
8r	.	4r	4r	16B\	-ren-	4r	.	4r	.	8dd\	-ren-	4r	4r
.	.	.	.	16A\	-te	.	.	.	.	.	.	.	.
8G\	.	.	.	8G\	in	.	.	.	.	16cc\	-te	.	.
.	.	.	.	.	.	.	.	.	.	16b\	in	.	.
=107	=107	=107	=107	=107	=107	=107	=107	=107	=107	=107	=107	=107	=107
!	!	!LO:TX:a:t=1:problem= z łuczkiem	!	!	!	!LO:N:vis=00	!	!LO:N:vis=00	!	!	!	!LO:N:vis=00	!LO:N:vis=00
8A\L	.	2r	2r	8A\	vi-	0r	.	0r	.	8cc\	vi-	0r	0r
8G\	.	.	.	8A\	-a	.	.	.	.	8cc\	-a	.	.
!	!	!	!	!LO:LB:g=original	!	!	!	!	!	!	!	!	!
8F#X\	.	.	.	8A\L	bi-	.	.	.	.	8cc\L	bi-	.	.
8D\J	.	.	.	16G\L	.	.	.	.	.	16b\L	.	.	.
.	.	.	.	16F#X\JJ	.	.	.	.	.	16a\JJ	.	.	.
!LO:LB:g=original	!	!	!	!	!	!	!	!	!	!	!	!	!
=108	=108	=108	=108	=108	=108	=108	=108	=108	=108	=108	=108	=108	=108
4G\	.	8r	8r	4G\	-bet	.	.	.	.	4b\	-bet	.	.
.	.	16b\LL	16dd\LL	.	.	.	.	.	.	.	.	.	.
.	.	16a\JJ	16cc\JJ	.	.	.	.	.	.	.	.	.	.
8r	.	8b\L	8dd\L	4r	.	.	.	.	.	4r	.	.	.
8B\	.	16a\L	16cc\L	.	.	.	.	.	.	.	.	.	.
.	.	16g\JJ	16b\JJ	.	.	.	.	.	.	.	.	.	.
=109	=109	=109	=109	=109	=109	=109	=109	=109	=109	=109	=109	=109	=109
8A\L	.	8a/L	8cc\L	4r	.	.	.	.	.	2r	.	.	.
8G\	.	8a/J	8cc\J	.	.	.	.	.	.	.	.	.	.
8F#X\	.	8a/L	8cc\L	8r	.	.	.	.	.	.	.	.	.
8D\J	.	16g/L	16b\L	8D\	pro-	.	.	.	.	.	.	.	.
.	.	16f#X/JJ	16a\JJ	.	.	.	.	.	.	.	.	.	.
=110	=110	=110	=110	=110	=110	=110	=110	=110	=110	=110	=110	=110	=110
4G\	.	4g/	4b\	16G\	-pte-	.	.	.	.	4r	.	.	.
.	.	.	.	16G\	-re-	.	.	.	.	.	.	.	.
.	.	.	.	8G\	-a	.	.	.	.	.	.	.	.
8r	.	4r	4r	8D\	e-	.	.	.	.	8r	.	.	.
!	!	!	!	!LO:SIC:s=8F:v	!	!	!	!	!	!	!	!	!
8GG/	.	.	.	8F-X\	-xal-	.	.	.	.	8b\	pro-	.	.
=111	=111	=111	=111	=111	=111	=111	=111	=111	=111	=111	=111	=111	=111
!	!	!LO:N:vis=00	!LO:N:vis=00	!	!	!LO:N:vis=00	!	!LO:N:vis=00	!	!	!	!LO:N:vis=00	!LO:N:vis=00
4C/	.	0r	0r	8E\	-ta-	0r	.	0r	.	8cc\	-pte-	0r	0r
.	.	.	.	8C\	-bit	.	.	.	.	16cc\	-re-	.	.
.	.	.	.	.	.	.	.	.	.	16cc\	-a	.	.
8r	.	.	.	8r	.	.	.	.	.	8g\	e-	.	.
*	*	*	*	*	*ij	*	*	*	*	*	*	*	*
8C/	-7	.	.	8E\	pro-	.	.	.	.	8b\	-xal-	.	.
=112	=112	=112	=112	=112	=112	=112	=112	=112	=112	=112	=112	=112	=112
8F\L	.	.	.	8F\	-pte-	.	.	.	.	8a\	-ta-	.	.
8F\J	.	.	.	16F\	-re-	.	.	.	.	8f/	-bit	.	.
.	.	.	.	16F\	-a	.	.	.	.	.	.	.	.
8D\L	.	.	.	8D\	e-	.	.	.	.	8r	.	.	.
!	!	!	!	!	!	!	!	!	!	!LO:TX:b:t=P:problem=oprócz znaku powtórzenia tekstu, dopisane mało widoczne słowa	!	!	!
*	*	*	*	*	*	*	*	*	*	*	*ij	*	*
16E\L	.	.	.	16E\LL	-xal-	.	.	.	.	8dd\	pro-	.	.
16F\JJ	.	.	.	16F\JJ	.	.	.	.	.	.	.	.	.
=113	=113	=113	=113	=113	=113	=113	=113	=113	=113	=113	=113	=113	=113
!LO:TX:a:t=P:problem=mixed beam	!	!	!	!	!	!	!	!	!	!	!	!	!
8G\L	.	.	.	8G\	-ta-	.	.	.	.	8bn\	-pte-	.	.
8GG/J	.	.	.	8GG/	-bit	.	.	.	.	16b\	-re-	.	.
*	*	*	*	*	*Xij	*	*	*	*	*	*	*	*
.	.	.	.	.	.	.	.	.	.	16b\	-a	.	.
8G\L	.	.	.	8G\	e-	.	.	.	.	8b\	e-	.	.
16A\L	.	.	.	16A\LL	-xal-	.	.	.	.	16cc\LL	-xal-	.	.
16B\JJ	.	.	.	16B\JJ	.	.	.	.	.	16dd\JJ	.	.	.
=114	=114	=114	=114	=114	=114	=114	=114	=114	=114	=114	=114	=114	=114
!LO:TX:a:t=P:problem=mixed beam	!	!	!	!	!	!	!	!	!	!	!	!	!
8c\L	.	.	.	8c\	-ta-	.	.	.	.	8ee\	-ta-	.	.
8F\	.	.	.	8F\	-bit	.	.	.	.	16dd\LL	-bit	.	.
*	*	*	*	*	*	*	*	*	*	*	*Xij	*	*
.	.	.	.	.	.	.	.	.	.	16cc\JJ	.	.	.
!	!	!	!	!LO:TX:a:t=P:problem=mixed beam	!	!	!	!	!	!	!	!	!
8G\	.	.	.	8G\L	Ca-	.	.	.	.	(8cc\L	Ca-	.	.
8GG/J	.	.	.	8GG/J	.	.	.	.	.	8b\J)	.	.	.
=115	=115	=115	=115	=115	=115	=115	=115	=115	=115	=115	=115	=115	=115
!	!	!	!	!	!	!LO:N:vis=00	!	!LO:N:vis=00	!	!	!	!	!
8C/L	.	8e/L	16c/LL	4C/	-put	0r	.	0r	.	4cc\	-put	8c/L	8c/L
.	.	.	16e/J	.	.	.	.	.	.	.	.	.	.
8C/	.	8e/	8g/J	.	.	.	.	.	.	.	.	8c/	8c/
8C/	.	8e/	8c/L	4r	.	.	.	.	.	4r	.	8c/	8c/
8C/J	.	8e/J	8c/J	.	.	.	.	.	.	.	.	8c/J	8c/J
=116	=116	=116	=116	=116	=116	=116	=116	=116	=116	=116	=116	=116	=116
!	!	!	!	!LO:N:vis=0	!	!	!	!	!	!LO:N:vis=0	!	!	!
8C/L	6 4	8f/L	16c/LL	1r	.	.	.	.	.	1r	.	8c/L	8c/L
.	.	.	16f/J	.	.	.	.	.	.	.	.	.	.
8C/	.	8f/	8a/J	.	.	.	.	.	.	.	.	8c/	8c/
8C/	.	8f/	8c/L	.	.	.	.	.	.	.	.	8c/	8c/
8C/J	.	8f/J	8c/J	.	.	.	.	.	.	.	.	8c/J	8c/J
!	!	!LO:LB:g=original	!	!	!	!	!	!	!	!	!	!	!LO:LB:g=original
=117	=117	=117	=117	=117	=117	=117	=117	=117	=117	=117	=117	=117	=117
!LO:TX:a:t=P:problem=mixed beam	!	!	!	!	!	!	!	!	!	!	!	!	!
8GG/L	.	16d/LL	16b\LL	.	.	.	.	.	.	.	.	4G/	4g/
.	.	16B/	16g\	.	.	.	.	.	.	.	.	.	.
8G\	.	16c/	16a\	.	.	.	.	.	.	.	.	.	.
.	.	16d/JJ	16b\JJ	.	.	.	.	.	.	.	.	.	.
8F\	.	8e/L	8cc\L	.	.	.	.	.	.	.	.	8cc\L	8gg\L
8D\J	.	8f/J	8f\J	.	.	.	.	.	.	.	.	8dd\J	8ff\J
=118	=118	=118	=118	=118	=118	=118	=118	=118	=118	=118	=118	=118	=118
!LO:TX:a:t=P:problem=mixed beam	!	!	!	!	!	!	!	!	!	!	!	!	!
8C/L	.	8g/L	8e\L	2r	.	.	.	.	.	2r	.	8ee\L	8ee\L
8F/	.	8a/	8cc\	.	.	.	.	.	.	.	.	16dd\L	16ff\L
.	.	.	.	.	.	.	.	.	.	.	.	16cc\JJ	16ee\JJ
8G/	.	8.g/	8d\	.	.	.	.	.	.	.	.	8g/L	8.dd\L
8GG\J	.	.	8b\J	.	.	.	.	.	.	.	.	8g/J	.
!	!	!LO:TX:a:t=P:problem=pojedyncza kreska taktowa	!LO:TX:a:t=P:problem=pojedyncza kreska taktowa	!	!	!	!	!	!	!LO:TX:a:t=P:problem=kreska słabo widoczna	!	!LO:TX:a:t=P:problem=pojedyncza kreska taktowa	!LO:TX:a:t=P:problem=pojedyncza kreska taktowa
.	.	16f/Jk	.	.	.	.	.	.	.	.	.	.	16dd\Jk
=119	=119	=119	=119	=119	=119	=119	=119	=119	=119	=119	=119	=119	=119
!LO:TX:a:t=P:problem=nadliczbowy takt w T	!	!LO:TX:a:t=P:problem=nadliczbowy takt w T	!LO:TX:a:t=P:problem=nadliczbowy takt w T	!LO:TX:a:t=P:problem=nadliczbowy takt w T	!	!LO:TX:a:t=P:problem=nadliczbowy takt	!	!LO:TX:a:t=P:problem=nadliczbowy takt w T	!	!LO:TX:a:t=P:problem=nadliczbowy takt w T	!	!LO:TX:a:t=P:problem=nadliczbowy takt w T	!LO:TX:a:t=P:problem=nadliczbowy takt w T
2ryy	.	2ryy	2ryy	2ryy	.	2r	.	2ryy	.	2ryy	.	2ryy	2ryy
!	!	!	!	!LO:LB:g=original	!	!	!	!	!	!LO:PB:g=original	!	!	!
=120||	=120||	=120||	=120||	=120||	=120||	=120||	=120||	=120||	=120||	=120||	=120||	=120||	=120||
*M3/4	*	*M3/4	*M3/4	*M3/4	*	*M3/4	*	*M3/4	*	*M3/4	*	*M3/4	*M3/4
!	!	!LO:TX:b:t=Gloria	!	!LO:SIC:s=4.c:v	!	!LO:TX:a:t=adagio	!	!LO:TX:a:t=adagio	!	!LO:TX:a:t=adagio	!	!	!LO:TX:a:t=Ada&colon;
4C/	.	4e/	4cc\	4.B\	Glo-	4.e\	Glo-	4.g\	Glo-	4.cc\	Glo-	4e/	4cc\
!	!	!	!LO:TX:a:t=adagio	!	!	!	!	!	!	!	!	!	!
4C/	.	4ee\	4ccc\	.	.	.	.	.	.	.	.	4cc\	4ee\
.	.	.	.	8C/	-ri-	8e\	-ri-	8g\	-ri-	8cc\	-ri-	.	.
4C/	.	4ee\	4ccc\	4C/	-a	4e\	-a	4g\	-a	4cc\	-a	4cc\	4ee\
=121	=121	=121	=121	=121	=121	=121	=121	=121	=121	=121	=121	=121	=121
4E\	.	4gg\	4ccc\	4E\	Pa-	4c\	Pa-	4g\	Pa-	4cc\	Pa-	4cc\	4ee\
4F\	.	4aa\	4ccc\	4F\	-tri	4c\	-tri	4a\	-tri	4cc\	-tri	4c/	4cc\
4F\	.	4aa\	4ccc\	4F\	et	4f\	et	4a\	et	4cc\	et	4c/	4cc\
!LO:LB:g=original	!	!	!	!	!	!	!	!	!	!	!	!	!
=122	=122	=122	=122	=122	=122	=122	=122	=122	=122	=122	=122	=122	=122
*	*	*2\right	*2\right	*	*	*	*	*	*	*	*	*	*
2F#X\	.	2aa\	2ccc\	4.F#X\	Fi-	4.d\	Fi-	4.a\	Fi-	4.cc\	Fi-	4r	4dd\
.	.	.	.	.	.	.	.	.	.	.	.	4g/	4dd\
.	.	.	.	8F#\	-li-	8d\	-li-	8a\	-li-	8cc\	-li-	.	.
4G\	.	4gg\	4bb\	4G\	-o	4d\	-o	4g\	-o	4b\	-o	4g/	4dd\
!	!	!	!	!	!	!	!	!	!	!	!	!LO:LB:g=original	!
=123	=123	=123	=123	=123	=123	=123	=123	=123	=123	=123	=123	=123	=123
4r	.	4r	4r	4r	.	4r	.	4r	.	4r	.	4g/	4r
4G\	.	4dd\	4bb\	4G\	et	4d\	et	4g\	et	4b\	et	4g/	4dd\
4G\	.	4dd\	4bb\	4G\	Spi-	4d\	Spi-	4g\	Spi-	4b\	Spi-	4dd\	4dd\
!	!	!	!LO:LB:g=original	!	!	!	!	!	!	!	!	!	!
=124	=124	=124	=124	=124	=124	=124	=124	=124	=124	=124	=124	=124	=124
!	!	!	!	!	!	!	!	!	!	!	!	!LO:TX:a:t=P:problem=brak taktu	!
2Fn\	4 2	2dd\	2bb\	4.Fn\	-ri-	4.d\	-ri-	4.g\	-ri-	4.b\	-ri-	2.ryy	4dd\
.	.	.	.	.	.	.	.	.	.	.	.	.	4dd\
.	.	.	.	8F\	-tu-	8d\	-tu-	8g\	-tu-	8b\	-tu-	.	.
!	!	!	!	!	!	!LO:SIC:s=4c:v	!	!	!	!	!	!	!
4E\	.	4dd\	4ccc\	4E\	-i	4d\	-i	4g\	-i	4cc\	-i	.	16ee\LL
.	.	.	.	.	.	.	.	.	.	.	.	.	16cc\
.	.	.	.	.	.	.	.	.	.	.	.	.	16ee\
.	.	.	.	.	.	.	.	.	.	.	.	.	16gg\JJ
=125	=125	=125	=125	=125	=125	=125	=125	=125	=125	=125	=125	=125	=125
4F\	.	4aa\	2ccc\	4F\	San-	2.d\	San-	4a\	San-	2cc\	San-	4c/	4aa\
4G\	.	4dd\	.	4G\	.	.	.	2g\	.	.	.	4g/	4.dd\
4GG/	.	8gg\L	4bb\	4GG/	.	.	.	.	.	4b\	.	4g/	.
.	.	8ff\J	.	.	.	.	.	.	.	.	.	.	8dd\
=126	=126	=126	=126	=126	=126	=126	=126	=126	=126	=126	=126	=126	=126
!	!	!LO:TX:a:t=P:problem=pojedyncza kreska taktowa	!LO:TX:a:t=P:problem=pojedyncza kreska taktowa	!	!	!	!	!	!	!	!	!LO:TX:a:t=P:problem=kreska z obustronną repetycją	!
2.C/	.	2.ee\	2.ccc\	2.C/	-cto	2.e\	-cto	2.g\	-cto	2.cc\	-cto	2.e/	2.cc\
!	!	!	!	!	!	!LO:LB:g=original	!	!LO:LB:g=original	!	!	!	!	!
=127||	=127||	=127||	=127||	=127||	=127||	=127||	=127||	=127||	=127||	=127||	=127||	=127||	=127||
*M2/4	*	*M2/4	*M2/4	*M2/4	*	*M2/4	*	*M2/4	*	*M2/4	*	*M2/4	*M2/4
!	!	!LO:TX:b:t=Sicuterat	!LO:TX:a:t=allo	!	!	!LO:TX:a:t=allo	!	!LO:TX:a:t=allo	!	!LO:TX:a:t=Allo	!	!	!LO:TX:a:t=Allo
8C/L	.	8ee\L	16gg\LL	8C/	Si-	8e\	Si-	8g\	Si-	8cc\	Si-	8c/L	8c/L
.	.	.	16ee\J	.	.	.	.	.	.	.	.	.	.
8C/	.	8ee\	8cc\J	8C/	-cut	8e\	-cut	8g\	-cut	8cc\	-cut	8c/	8c/
8C/	.	8ee\	8cc\L	8C/	e-	8e\	e-	8g\	e-	8cc\	e-	8c/	8c/
8C/J	.	8ee\J	8cc\J	8C/	-rat	8e\	-rat	8g\	-rat	8cc\	-rat	8c/J	8c/J
=128	=128	=128	=128	=128	=128	=128	=128	=128	=128	=128	=128	=128	=128
8C/L	.	8ee\L	16gg\LL	8C/	in	8e\	in	8g\	in	8cc\	in	8c/L	8c/L
.	.	.	16ee\J	.	.	.	.	.	.	.	.	.	.
8C/	.	8ee\	8cc\J	8C/	prin-	8e\	prin-	8g\	prin-	8cc\	prin-	8c/	8c/
8C/	.	8ee\	8cc\L	8C/	-ci-	8e\	-ci-	8g\	-ci-	8cc\	-ci-	8c/	8c/
8C/J	.	8ee\J	8cc\J	8C/	-pi-	8e\	-pi-	8g\	-pi-	8cc\	-pi-	8c/J	8c/J
!	!	!	!	!LO:PB:g=original	!	!	!	!	!	!	!	!	!
=129	=129	=129	=129	=129	=129	=129	=129	=129	=129	=129	=129	=129	=129
8C/L	.	8ee\L	16gg\LL	8C\	-o	8e\	-o	8g\	-o	8cc\	-o	8c/L	8c/L
.	.	.	16ee\J	.	.	.	.	.	.	.	.	.	.
8C/	.	8ee\	8cc\J	8C\	et	8e\	et	8g\	et	8cc\	et	8c/	8c/
8C/	6 4	8ff\	8aa\L	8F\	nunc	8f\	nunc	8a\	nunc	8cc\	nunc	8c/	8c/
!	!	!	!	!	!	!	!	!	!	!LO:LB:g=original	!	!	!
8C/J	.	8ff\J	8aa\J	8F\	et	8f\	et	8a\	et	8cc\	et	8c/J	8c/J
!	!	!	!	!	!	!	!	!	!	!	!	!	!LO:LB:g=original
=130	=130	=130	=130	=130	=130	=130	=130	=130	=130	=130	=130	=130	=130
4C/	.	8ee\L	8gg\L	8C/	Sem-	8e\	sem-	8g\	sem-	8cc\	sem-	4c/	4c/
.	.	8ee\J	8cc\J	8C/	-per	8e\	-per	8g\	-per	8cc\	-per	.	.
4r	.	4r	4r	4r	.	4r	.	4r	.	4r	.	4r	4r
=131	=131	=131	=131	=131	=131	=131	=131	=131	=131	=131	=131	=131	=131
!LO:N:vis=0	!	!	!	!	!	!	!	!	!	!LO:SIC:s=4g:v	!	!LO:N:vis=0	!LO:N:vis=0
*	*	*	*	*	*ij	*	*ij	*	*	*	*ij	*	*
1r	.	8e/L	16g/LL	4c\	et	4c\	et	4e\	et	4f\	et	1r	1r
.	.	.	16e/J	.	.	.	.	.	.	.	.	.	.
.	.	8e/	8c/J	.	.	.	.	.	.	.	.	.	.
.	.	8f/	8a\L	8c\	nunc	8c\	nunc	8f\	nunc	8a\	nunc	.	.
.	.	8f/J	8a\J	8c\	et	8c\	et	8f\	et	8a\	et	.	.
=132	=132	=132	=132	=132	=132	=132	=132	=132	=132	=132	=132	=132	=132
.	.	8e/L	8g/L	8c\	Sem-	8c\	sem-	8e\	sem-	8g\	sem-	.	.
.	.	8c/J	8c/J	8C/	-per	8c\	-per	8c\	-per	8c/	-per	.	.
*	*	*	*	*	*Xij	*	*Xij	*	*	*	*Xij	*	*
.	.	4r	4r	4r	.	4r	.	4r	.	4r	.	.	.
!	!	!LO:LB:g=original	!	!	!	!	!	!	!	!	!	!	!
=133	=133	=133	=133	=133	=133	=133	=133	=133	=133	=133	=133	=133	=133
8G\L	.	8b\L	16g\LL	4.G\	Et	4.B\	et	4.g\	et	4.dd\	et	8g/L	8dd\L
.	.	.	16b\J	.	.	.	.	.	.	.	.	.	.
8G\	.	8b\	8dd\J	.	.	.	.	.	.	.	.	8g/	8dd\
8G\	.	8b\	8g\L	.	.	.	.	.	.	.	.	8g/	8dd\
8G\J	.	8b\J	8g\J	8G\	in	8B\	in	8g\	in	8dd\	in	8g/J	8dd\J
=134	=134	=134	=134	=134	=134	=134	=134	=134	=134	=134	=134	=134	=134
8G\L	.	8cc\L	16g\LL	4G\	Sae-	8c\	sae-	4g\	sae-	4ee\	sae-	8cc\L	8ee\L
.	.	.	16cc\J	.	.	.	.	.	.	.	.	.	.
8G\	.	8cc\	8ee\J	.	.	16c\	-cu-	.	.	.	.	8cc\	8ee\
.	.	.	.	.	.	16c\	-la	.	.	.	.	.	.
8G\	.	8cc\	8g/L	8G\	-cu-	4r	.	8g\	-cu-	8ee\	-cu-	8cc\	8ee\
8G\J	.	8cc\J	8g/J	8G\	-la	.	.	8g\	-la	8ee\	-la	8cc\J	8ee\J
=135	=135	=135	=135	=135	=135	=135	=135	=135	=135	=135	=135	=135	=135
8G\L	.	4b\	16g\LL	8.G\	Sae-	8.B\	Sae-	8.g\	sae-	8.dd\	sae-	8g/L	8dd\L
.	.	.	16b\	.	.	.	.	.	.	.	.	.	.
8G\	.	.	16dd\	.	.	.	.	.	.	.	.	8g/	8dd\
!	!	!	!	!LO:N:vis=8	!	!	!	!	!	!	!	!	!
.	.	.	16ff\JJ	16G\	-cu-	16B\	-cu-	16g\	-cu-	16dd\	-cu-	.	.
8c\	.	8cc\L	8ee\L	8c\	-lo-	8c\	-lo-	8g\	-lo-	8ee\	-lo-	8cc/	8ee\
8F\J	.	8b\J	8cc\J	8F\	-rum	8f\	-rum	8a\	-rum	8cc\	-rum	8dd/J	8ff\J
!	!	!	!	!	!	!LO:LB:g=original	!	!LO:PB:g=original	!	!	!	!	!
=136	=136	=136	=136	=136	=136	=136	=136	=136	=136	=136	=136	=136	=136
!LO:TX:a:t=P:problem=mixed beam	!	!	!	!	!	!	!	!	!	!	!	!	!
8G\L	.	8b\L	8b\L	8G\	A-	16d\LL	a-	8g\	A-	8b\	A-	4g/	4.dd\
.	.	.	.	.	.	16e\	.	.	.	.	.	.	.
8F\	.	8cc\	8cc\	8F\	-men	16f\	.	8a\	.	8cc\	-men	.	.
.	.	.	.	.	.	16e\JJ	.	.	.	.	.	.	.
!	!	!	!	!LO:TX:a:t=P:problem=mixed beam	!	!	!	!	!	!	!	!	!
*	*	*	*	*	*ij	*	*	*	*	*	*	*	*
8G\	.	8g\	8g\	8G\L	A-	4d\	.	4g\	.	(8cc\L	A-	8g/L	.
8GG/J	.	8b\J	8b\J	8GG/J	.	.	.	.	.	8b\J)	.	8g/J	8dd\
!LO:LB:g=original	!	!	!	!	!	!	!	!	!	!	!	!	!
=137	=137	=137	=137	=137	=137	=137	=137	=137	=137	=137	=137	=137	=137
4C/	.	4cc\	4cc\	4C\	-men	4e\	-men	4g\	-men	4cc\	-men	4e/	4cc\
*	*	*	*	*	*Xij	*	*	*	*	*	*ij	*	*
8C/L	.	8ee\L	8gg\L	8C\	A-	8c\	a-	8e\	a-	8g\	A-	8c/L	8c/L
8C/J	.	8ee\J	8gg\J	8C\	-men	8c\	-men	8e\	-men	8g\	-men	8c/J	8c/J
*	*	*	*	*	*	*	*	*	*	*	*Xij	*	*
=138	=138	=138	=138	=138	=138	=138	=138	=138	=138	=138	=138	=138	=138
[2C/	.	8ee\L	8gg\L	2C/	A-	2c\	a-	8e\L	A-	8g\L	A-	2c/	2c/
.	.	8ff\	8aa\	.	.	.	.	8f\	.	8a\	.	.	.
.	.	8ff\	8aa\	.	.	.	.	8f\	.	8a\	.	.	.
!	!	!	!LO:TX:a:t=P:problem=bemol nad nutą	!	!	!	!	!	!	!	!	!	!
.	.	8gg\J	8bb--\J	.	.	.	.	8g\J	.	8b-X\J	.	.	.
!	!	!	!LO:LB:g=original	!	!	!	!	!	!	!	!	!	!
=139	=139	=139	=139	=139	=139	=139	=139	=139	=139	=139	=139	=139	=139
!	!	!	!LO:SIC:s=8bb-:v	!	!	!	!	!	!	!LO:SIC:s=8b-:v	!	!	!
(<2C/]	.	8gg\L	8bb\L	2C/	.	4.c\	.	8g\L	.	8b\	-men	2c/	2c/
.	.	8ff\	8aa\	.	.	.	.	8f\	.	4a\	A-	.	.
.	.	8ff\	8aa\	.	.	.	.	8f\	.	.	.	.	.
.	.	8ee\J	8gg\J	.	.	8c\	.	8e\J	.	8g\	-men	.	.
!	!	!	!	!	!	!	!	!	!	!LO:LB:g=original	!	!	!
=140	=140	=140	=140	=140	=140	=140	=140	=140	=140	=140	=140	=140	=140
8F\L)	.	4.cc\	8aa\L	8F\L	.	2d\	.	8f\	-men	8a\L	A-	4c/	4c/
8E\	.	.	8gg\	8E\	.	.	.	8c\	.	8g\	.	.	.
8D\	.	.	8gg\	8D\	.	.	.	8f\L	A-	8f\	.	8r	4r
8C\J	.	8cc\	8ff\J	8C\J	.	.	.	8g\J	.	8e\J	.	8cc\	.
!	!	!	!	!LO:LB:g=original	!	!	!	!	!	!	!	!	!
=141	=141	=141	=141	=141	=141	=141	=141	=141	=141	=141	=141	=141	=141
4GG/	.	4b\	4dd\	4G\	.	4B\	-men	4g\	-men	4d/	-men	4g/	4dd\
8GG/L	.	8r	8r	8G\	.	8G/	a-	8d\	A-	8bn\	A-	8G/L	8g/L
8GG/J	.	8b\	8dd\	8G\	-men	8G/	.	8d\	-men	8b\	-men	8G/J	8g/J
=142	=142	=142	=142	=142	=142	=142	=142	=142	=142	=142	=142	=142	=142
[2GG/	.	8b\L	8dd\L	2G\	A-	2G/	.	8d\L	A-	8b\	A-	2G/	2g/
.	.	8cc\	8ee\	.	.	.	.	8e\	.	4cc\	.	.	.
.	.	8cc\	8ee\	.	.	.	.	8e\	.	.	.	.	.
.	.	8dd\J	8ff\J	.	.	.	.	8f\J	.	8dd\	.	.	.
!	!	!	!	!	!	!	!	!	!	!	!	!LO:LB:g=original	!
=143	=143	=143	=143	=143	=143	=143	=143	=143	=143	=143	=143	=143	=143
2GG/]	.	8dd\L	(8ff\L	2G\	.	4.G/	.	8f\L	.	8dd\	.	4G/	4g/
.	.	8cc\	8ee\	.	.	.	.	8e\	.	4cc\	.	.	.
.	.	8cc\	8ee\	.	.	.	.	8e\	.	.	.	8r	8r
.	.	8b\J	8dd\J)	.	.	8G/	.	8d\J	.	8b\	.	8g/	8dd\
=144	=144	=144	=144	=144	=144	=144	=144	=144	=144	=144	=144	=144	=144
8C\L	.	8cc\L	8ee\L	8c\	.	8G/	.	8e\	.	8cc\	-men	8cc\L	8ee\L
16E\L	.	8dd\	8ff\J	8F\	-men	8A/	.	8a\	.	16dd\LL	A-	16dd\L	16ff\L
16F\JJ	.	.	.	.	.	.	.	.	.	16cc\JJ	.	16cc\JJ	16ee\JJ
!LO:TX:a:t=P:problem=mixed beam	!	!	!	!LO:TX:a:t=P:problem=mixed beam	!	!	!	!	!	!	!	!	!
*	*	*	*	*	*ij	*	*	*	*	*	*	*	*
8G\L	.	8g\	8.dd\L	8G\L	A-	4G/	.	4d\	.	8cc\L	.	8g/L	8.dd\L
8GG/J	.	8b\J	.	8GG/J	.	.	.	.	.	8b\J	.	8g/J	.
.	.	.	16dd\Jk	.	.	.	.	.	.	.	.	.	16dd\Jk
=145	=145	=145	=145	=145	=145	=145	=145	=145	=145	=145	=145	=145	=145
4C/	.	4cc\	4cc\	4C/	-men	4G/	-men	4e\	-men	4cc\	-men	4e/	4cc\
*	*	*	*	*	*Xij	*	*	*	*	*	*	*	*
8r	.	8r	8r	8r	.	8r	.	8r	.	8r	.	8r	8r
*	*	*	*	*	*	*	*	*	*	*	*ij	*	*
8G\	.	8dd\	8gg\	8G\	A-	8B\	a-	8g\	A-	8dd\	A-	8G/	8g/
!	!	!	!	!	!	!	!	!	!	!	!	!	!LO:LB:g=original
=146	=146	=146	=146	=146	=146	=146	=146	=146	=146	=146	=146	=146	=146
4C/	.	4ee\	4gg\	4C/	-men	4c\	-men	4g\	-men	4ee\	-men	4c/	8e/L
*	*	*	*	*	*	*	*	*	*	*	*Xij	*	*
.	.	.	.	.	.	.	.	.	.	.	.	.	8c/J
!	!	!	!	!	!	!	!	!	!	!	!	!LO:TX:a:t=P:problem=kreska z obustronną repetycją	!
4r	.	4r	4r	4r	.	4r	.	4r	.	4r	.	4r	4r
==	==	==	==	==	==	==	==	==	==	==	==	==	==
*-	*-	*-	*-	*-	*-	*-	*-	*-	*-	*-	*-	*-	*-
!!!system-decoration: [g1][g2][g3]s9
!!!RDF**kern: > = above
!!!RDF**kern: < = below
!!!AIN: 1 alto 3 empty 1 organ 1 tenor 2 violn 1 vox
!!!ENC: Marta Lawrence
!!!END: 2020-09-19
!!!ENC: Kamil Watkowski
!!!END: 2020-04-22
